{"type":"map","version":"1.10","tiledversion":"1.11.0","orientation":"orthogonal","renderorder":"right-down","width":64,"height":44,"tilewidth":16,"tileheight":16,"infinite":false,"nextlayerid":7,"nextobjectid":2,"layers":[{"id":1,"name":"ground","type":"tilelayer","x":0,"y":0,"width":64,"height":44,"opacity":1,"visible":true,"data":[266,265,265,265,265,265,267,268,265,265,265,265,265,265,265,265,265,265,269,265,265,265,265,269,265,265,265,265,265,269,265,265,265,265,265,265,265,265,265,265,265,265,268,265,265,265,265,265,265,265,265,265,265,265,265,266,265,265,265,265,265,265,265,269,265,265,265,268,265,265,265,265,265,265,265,267,265,265,265,265,265,265,265,267,265,265,265,265,265,265,265,265,265,265,265,265,265,265,265,265,265,268,265,265,265,265,265,265,265,265,265,265,265,265,265,265,265,265,265,265,265,265,265,266,265,265,265,265,265,265,265,265,265,265,265,265,265,265,265,267,265,265,265,265,268,265,265,265,265,265,265,265,265,265,265,265,265,265,265,265,265,265,265,265,265,265,265,265,265,265,269,265,265,265,265,265,265,265,265,265,265,265,265,265,265,265,265,265,265,265,265,265,265,265,265,265,265,265,265,265,265,265,265,265,265,265,268,265,265,265,265,265,265,265,265,265,265,265,265,265,265,265,265,265,266,265,265,265,265,267,265,265,265,267,265,265,265,265,266,265,265,265,265,266,265,265,265,265,265,265,265,265,265,269,265,265,265,265,265,265,269,265,267,265,265,265,265,265,265,265,265,265,265,265,265,265,268,265,265,265,265,265,265,265,265,267,265,265,265,265,265,265,265,267,265,265,265,265,265,268,265,265,265,267,265,265,265,265,265,265,267,265,265,265,265,265,265,265,265,265,265,265,265,265,265,267,265,265,265,265,265,265,265,265,267,265,265,265,265,265,265,265,265,266,265,265,265,267,266,265,269,265,265,265,269,265,265,265,265,265,265,265,265,265,265,265,265,265,265,265,265,265,268,265,265,265,265,265,265,265,265,265,265,265,265,265,265,265,265,265,265,265,267,265,265,265,265,265,265,265,265,269,265,265,265,265,265,265,265,265,265,265,265,265,265,265,265,265,268,265,265,265,265,265,265,269,265,265,265,265,265,265,265,265,265,265,265,265,265,265,265,265,268,265,265,265,268,265,266,265,265,265,265,265,265,265,265,265,265,265,265,265,265,265,269,265,265,265,265,265,269,265,265,265,265,265,265,265,265,265,265,265,265,265,265,265,265,267,265,265,265,266,267,265,265,265,265,265,265,267,265,266,265,265,265,265,265,267,265,265,269,265,265,265,265,265,265,265,265,265,265,265,265,265,265,265,266,266,265,265,265,265,265,265,265,265,269,265,265,265,265,266,265,265,265,265,265,265,265,265,265,265,265,265,265,269,265,265,265,265,265,265,155,156,157,265,265,265,269,265,266,265,269,265,265,265,265,265,265,265,265,265,265,265,265,265,265,265,265,265,265,265,269,265,265,265,265,265,265,265,265,265,265,265,265,265,265,265,265,265,265,265,265,265,265,265,265,265,265,265,265,265,265,265,265,155,183,230,182,157,265,265,265,265,265,265,265,265,267,265,265,265,265,265,265,265,265,265,267,265,265,265,267,265,265,265,265,265,265,265,267,265,265,265,265,265,265,265,265,265,265,267,266,265,265,265,265,265,268,265,265,265,267,265,265,265,265,265,155,183,229,207,229,182,157,265,265,265,265,265,265,265,265,265,265,265,267,265,265,265,265,265,265,265,265,265,265,265,265,265,265,265,265,265,265,268,265,265,265,265,265,265,265,265,265,265,265,265,265,265,265,265,265,265,265,265,265,265,265,265,265,267,177,178,207,178,207,178,179,265,265,265,265,265,265,265,265,265,265,265,265,268,265,265,266,265,265,265,265,265,265,265,265,265,266,269,265,265,265,265,265,265,265,265,265,265,267,265,265,265,265,265,265,265,265,265,265,265,265,265,265,265,265,155,156,156,183,207,178,229,178,204,201,265,265,268,265,265,265,265,265,265,265,265,265,265,265,265,265,265,265,267,265,265,265,265,265,265,265,265,266,267,265,265,265,265,269,265,269,268,265,265,265,269,265,265,265,268,265,266,265,265,265,265,265,155,156,183,230,178,204,200,205,207,204,201,265,265,265,265,265,265,265,265,265,265,265,265,265,265,265,265,265,265,265,265,265,265,265,265,265,265,266,265,265,265,265,265,265,265,267,265,265,265,265,265,265,269,267,265,265,265,265,267,265,265,265,155,156,183,178,178,204,200,201,265,199,200,201,265,265,265,265,265,265,265,265,265,265,265,265,265,265,265,265,265,265,265,268,265,267,265,265,265,265,265,265,265,265,265,265,265,265,265,265,265,265,265,265,265,265,268,265,267,265,265,265,265,265,265,155,183,229,204,200,200,201,265,265,268,265,265,265,265,265,265,265,265,268,267,265,266,267,265,265,265,265,265,268,265,265,265,265,265,265,265,267,265,265,265,265,265,265,265,267,265,265,265,265,265,265,265,265,265,265,265,265,265,265,269,265,265,265,265,177,178,204,201,265,265,265,265,269,265,265,265,265,269,265,267,266,265,265,265,265,265,267,265,265,265,265,265,266,265,265,265,265,265,265,265,265,265,265,265,266,265,265,265,265,265,268,266,269,265,265,265,265,265,265,265,265,265,267,265,265,265,265,155,183,204,201,265,265,267,265,266,265,268,265,265,265,265,269,265,265,265,265,265,265,265,265,265,265,265,265,265,265,265,268,265,265,265,265,268,265,268,265,265,265,265,265,269,265,265,265,265,265,265,265,265,265,265,265,265,265,265,265,265,265,267,265,177,178,179,265,265,269,265,265,265,265,265,265,265,265,265,265,265,265,265,265,265,265,265,265,265,265,265,265,265,265,265,265,265,265,265,265,265,265,155,156,156,157,268,265,155,156,157,265,265,267,265,265,265,267,265,155,156,156,156,157,268,265,265,155,183,204,201,265,266,265,265,265,265,268,265,265,265,265,265,265,269,265,265,265,265,265,265,265,265,156,157,265,265,269,265,265,265,155,156,156,156,156,183,178,229,182,156,156,183,178,182,157,265,266,265,265,265,265,155,183,178,207,178,182,156,156,156,183,229,179,265,265,265,265,265,265,265,265,265,265,265,265,265,265,269,265,265,265,265,265,265,265,265,178,182,156,156,156,156,156,156,183,230,208,207,178,204,200,200,205,208,178,178,230,178,182,156,156,156,156,156,156,183,207,208,229,178,207,207,230,230,204,200,201,265,265,265,265,265,265,265,265,265,268,268,265,265,265,265,265,265,265,265,265,265,269,265,200,205,208,178,208,229,230,178,208,230,178,204,200,201,265,265,199,200,200,200,200,200,205,229,208,178,178,230,229,229,207,178,229,178,178,230,230,204,201,265,265,265,265,265,265,265,269,265,265,265,265,265,265,265,266,265,265,265,265,265,265,265,265,265,265,199,200,200,200,200,200,200,200,200,200,201,265,265,265,265,265,265,265,265,265,269,199,200,200,200,200,200,205,230,229,178,178,207,178,178,204,201,267,265,265,265,265,265,268,265,265,265,265,265,265,265,265,265,265,265,265,265,265,269,265,265,265,265,265,265,265,265,265,265,265,265,265,265,265,265,265,265,265,265,266,265,265,265,265,265,265,265,265,265,265,265,177,178,208,178,230,229,207,229,179,265,265,265,266,265,265,265,265,269,265,267,265,265,265,265,265,265,265,265,265,265,265,265,265,265,265,265,265,265,265,265,265,265,266,265,268,265,265,265,265,266,265,265,265,267,265,265,265,265,265,265,265,265,265,265,177,178,178,178,229,208,178,204,201,265,265,265,265,265,265,265,265,265,265,265,265,265,265,265,265,265,265,265,265,265,265,265,265,265,265,265,265,269,265,265,265,265,265,265,265,267,265,267,265,265,265,265,265,265,265,265,265,265,265,265,265,265,265,155,183,178,207,208,178,207,204,201,265,265,265,265,265,265,265,265,265,265,265,265,265,265,265,265,265,265,265,265,265,265,265,265,265,265,265,265,265,265,265,265,265,265,269,265,265,265,269,265,265,265,265,265,265,265,265,265,265,268,265,265,265,265,155,183,178,204,200,200,200,200,201,265,265,265,267,265,265,267,265,265,265,265,265,265,265,265,265,265,265,265,267,265,265,265,265,265,267,265,265,265,265,265,265,265,265,265,265,265,268,265,265,267,265,265,265,265,265,265,265,265,265,265,266,265,269,155,183,204,200,201,265,265,265,265,265,265,265,265,265,265,265,265,265,265,265,265,265,265,265,265,265,265,265,265,265,265,268,267,265,265,265,265,265,265,265,265,265,265,265,265,265,265,267,265,265,265,265,265,265,265,265,265,265,265,265,265,265,265,265,177,178,179,265,265,265,266,265,265,265,265,265,265,265,265,265,265,265,265,265,265,265,265,265,265,265,265,265,265,265,265,265,265,265,265,265,265,265,265,265,265,265,265,266,265,741,742,742,742,742,742,742,743,265,265,265,265,268,265,265,265,265,265,155,183,208,179,265,265,265,265,266,265,265,265,265,265,265,269,265,265,265,265,265,268,265,265,265,265,265,265,265,265,265,265,268,265,265,265,265,265,265,265,265,265,265,266,265,741,770,770,770,770,770,770,770,770,743,265,265,265,155,156,156,156,156,156,183,204,200,201,265,265,265,265,265,265,265,265,265,265,268,265,265,265,265,265,265,265,265,265,265,265,265,265,265,265,265,267,265,269,265,267,266,265,269,265,265,265,265,265,265,769,770,770,770,770,770,770,770,770,771,268,155,156,183,230,178,207,208,208,204,201,265,265,269,265,265,266,265,267,267,265,265,265,265,265,265,265,265,265,265,265,265,265,265,265,265,265,265,267,265,265,265,265,265,265,265,269,265,265,265,269,265,265,265,769,770,770,770,770,770,770,770,770,771,265,199,205,178,204,200,200,200,200,201,265,265,265,265,265,266,266,265,265,265,265,265,265,265,265,265,265,267,265,265,265,265,265,265,265,265,265,269,268,265,265,265,265,265,265,265,265,265,265,265,265,265,265,269,769,770,770,770,770,770,770,770,770,771,265,265,199,200,201,265,265,265,265,265,267,266,267,265,265,265,265,266,265,265,268,265,265,265,265,265,265,265,265,265,265,265,269,265,265,265,265,265,265,265,265,265,265,265,265,265,265,265,265,265,265,265,265,265,769,770,770,770,770,770,770,770,770,771,265,265,265,265,265,265,265,265,265,265,265,265,265,265,265,266,265,265,265,265,265,265,265,268,267,265,265,265,265,265,266,265,265,265,265,265,265,265,265,265,265,265,265,265,265,265,265,265,265,265,265,265,265,265,769,770,770,770,770,770,770,770,770,799,265,265,266,265,265,265,268,265,265,265,265,265,265,265,265,265,265,265,265,265,265,265,265,265,265,265,265,265,265,265,265,265,265,265,265,265,265,265,265,265,265,265,265,265,265,265,265,265,265,267,266,265,269,265,797,798,798,798,798,798,798,798,799,265,265,265,265,265,265,265,265,265,265,265,265,265,265,268,265,265,269,265,265,265,265,265,265,265,265,265,265,265,265,265,265,265,265,265,265,265,265,265,268,265,265,265,265,265,265,265,265,265,265,265,265,265,265,265,265,265,265,265,265,265,265,265,265,265,265,265,265,265,265,265,267,265,265,265,265,265,269,265,265,265,265,265,265,265,265,265,265,265,265,265,265,265,265,265,269,266,265,265,265,265,265,265,265,265,265,265,265,266,265,265,265,265,265,265,265,266,265,265,265,265,265,265,265,265,267,265,265,265,265,265,265,265,265,265,265,265,265,265,266,265,265,265,268,265,265,267,265,265,265,265,265,265,265,265,265,265,265,265,265,265,265,265,265,265,265,265,265,265,265,265,265,265,265,265,265,265,265,267,265,269,265,265,265,265,265,267,265,265,269,265,265,265,265,265,265,265,265,267,265,265,265,265,265,265,265,265,265,265,265,265,265,265,265,265,265,265,265,265,267,267,265,265,265,265,265,265,265,265,265,265,265,265,265,265,265,265,265,265,265,265,265,265,265,265,265,265,265,265,265,265,265,269,265,265,265,265,265,265,265,265,265,265,265,265,265,265,265,265,265,265,265,265,265,265,265,265,265,265,265,265,267,265,265,265,265,265,265,265,265,265,265,265,265,265,265,265,267,265,265,269,265,265,265,265,265,269,265,265,265,265,265,265,265,265,265,265,265,265,265,265,268,265,265,265,266,265,265,267,265,265,265,265,265,265,265,265,265,265,265,265,265,265,265,265,265,265,265,265,265,265,265,265,269,265,267,265,265,265,265,265,265,265,265,265,265,265,265,265,265,265,265,265,265,265,265,269,265,265,265,265,266,265,265,265,265,265,265,268,265,265,265,265,265,265,265,265,265,265,265,265,265,265,265,267,269,265,265,268,265,267,265,265,265,265,266,265,268,267,265,265,265,265,265,265,265,265,265,265,265,265,265,265,265]},{"id":2,"name":"decor","type":"tilelayer","x":0,"y":0,"width":64,"height":44,"opacity":1,"visible":true,"data":[0,0,0,0,0,0,0,0,0,0,0,0,0,0,0,0,0,0,0,0,0,0,0,0,0,0,0,0,0,0,0,0,0,0,0,0,0,0,0,0,0,0,0,0,0,0,0,0,0,0,0,0,0,0,0,0,0,0,0,0,0,0,0,0,0,0,0,0,0,0,0,0,0,0,0,0,0,0,0,0,0,0,0,0,0,0,0,0,0,0,0,0,0,0,0,0,0,0,0,0,0,0,0,0,0,0,0,0,0,0,0,0,0,0,0,0,0,0,0,0,0,0,0,0,0,0,0,0,0,0,0,0,0,0,0,0,0,0,0,0,0,0,0,0,0,0,0,0,0,0,0,0,0,0,0,0,0,0,0,0,0,0,0,0,0,0,0,0,0,0,0,0,0,0,0,0,0,0,0,0,0,0,0,0,0,0,0,0,0,0,0,0,0,0,0,0,0,0,0,0,0,0,0,0,0,0,0,0,0,0,0,0,0,0,0,0,0,0,0,0,0,0,0,0,0,0,0,0,0,0,0,0,0,0,0,0,0,0,0,0,0,0,0,0,0,0,0,0,0,0,0,0,0,0,0,0,0,0,0,0,0,0,0,0,0,0,0,0,0,0,0,0,0,0,0,0,0,0,0,0,0,0,0,0,0,0,0,0,0,0,0,0,0,0,0,0,0,0,0,0,0,0,0,0,0,0,0,0,0,0,0,0,0,0,0,0,0,0,0,0,0,0,0,0,0,0,0,0,0,0,0,0,0,0,0,0,0,0,0,0,0,0,0,0,0,0,0,0,0,0,0,0,0,0,0,0,0,0,0,1319,0,0,0,0,0,0,0,0,0,0,0,0,0,0,0,0,0,0,0,0,0,0,0,0,0,0,0,0,0,0,0,0,0,0,0,0,0,0,0,0,0,0,0,0,0,0,0,0,0,1319,0,0,0,0,0,0,0,0,0,0,0,0,0,0,0,0,0,0,0,0,0,0,0,0,0,0,0,0,0,0,0,0,0,0,0,0,0,0,0,0,0,0,0,0,0,0,0,0,0,0,0,0,1314,0,0,0,0,0,0,0,0,0,0,0,0,0,0,0,0,0,0,0,0,0,0,0,0,0,0,0,0,0,0,0,0,0,0,0,0,0,0,0,0,0,0,0,0,0,0,0,0,0,0,0,0,0,0,0,0,0,1313,0,0,0,0,0,1292,0,0,0,0,0,0,0,0,0,0,0,0,0,0,0,0,0,0,0,0,0,0,0,0,0,0,0,0,0,0,0,0,0,0,0,0,0,0,0,0,0,0,0,0,0,0,0,0,0,0,0,0,0,0,0,0,0,0,0,0,0,0,0,0,0,0,0,0,0,0,0,0,0,0,0,0,0,0,0,0,0,0,0,0,0,1292,0,0,0,0,0,0,0,0,0,0,0,0,0,0,0,0,0,0,0,0,0,0,0,0,0,0,0,0,0,0,0,0,0,0,0,0,0,0,0,0,0,0,0,0,0,0,0,0,0,0,0,0,0,0,0,0,0,0,0,0,0,0,1298,0,0,0,0,0,0,0,0,0,0,0,0,0,0,0,0,0,0,0,0,0,0,0,0,0,0,0,0,0,0,0,0,0,0,0,0,0,0,0,0,0,0,0,0,0,0,0,0,0,0,0,0,0,0,0,0,0,0,0,0,0,0,0,0,0,0,0,0,0,1316,0,0,0,0,0,0,0,0,0,0,0,0,0,0,0,0,0,0,0,0,0,0,0,0,0,0,0,0,0,0,0,0,0,0,0,0,0,0,0,0,0,0,0,0,0,0,0,0,0,0,0,1292,0,0,0,0,0,0,0,0,0,0,0,0,0,0,1293,0,0,0,0,0,0,0,0,0,0,0,0,0,0,0,0,0,0,0,0,0,0,0,0,0,0,0,0,0,0,0,0,0,0,0,0,0,0,0,0,0,0,0,0,0,0,0,0,0,0,0,0,0,0,0,0,0,1314,0,0,0,0,0,0,0,0,0,0,0,0,0,0,0,0,0,0,0,1296,0,0,0,0,0,0,0,0,0,0,0,0,0,0,0,0,0,0,0,0,0,0,0,0,0,0,0,0,0,0,0,0,0,0,0,0,0,0,0,0,0,0,0,0,0,0,0,0,0,0,0,0,0,0,0,0,0,0,0,0,0,0,0,0,0,0,0,0,0,0,0,0,0,0,0,0,0,0,0,0,1314,0,0,0,0,0,0,0,0,0,0,0,0,0,0,1316,0,0,0,0,0,0,0,0,0,0,0,0,0,0,0,0,0,0,0,0,0,0,0,0,0,0,0,0,0,0,0,1319,0,0,0,0,0,0,0,0,0,0,0,0,0,0,0,0,0,0,1319,0,0,0,0,0,0,0,0,0,0,0,0,0,1297,0,0,0,0,0,0,0,0,0,0,0,0,0,0,0,0,0,0,0,0,0,0,0,0,0,0,0,0,0,0,0,1313,0,0,0,0,0,0,0,0,0,0,0,0,0,0,0,0,0,0,0,0,0,0,0,0,0,0,0,0,0,0,0,0,0,0,0,0,0,0,0,0,0,0,0,0,0,0,0,0,0,0,0,0,0,0,0,0,0,0,0,0,0,0,0,0,0,0,0,0,0,0,0,0,0,0,0,0,0,0,0,0,0,0,0,0,0,0,0,1297,0,0,0,0,0,0,0,0,0,0,0,0,0,0,0,0,0,0,0,0,0,0,0,0,0,0,0,0,0,0,0,0,0,0,0,0,0,0,0,0,0,0,0,0,0,0,0,1319,0,0,0,0,0,0,0,0,0,0,0,0,0,0,0,0,0,0,0,0,0,0,0,0,0,0,0,0,0,0,0,0,0,0,0,0,0,0,0,0,0,0,0,0,0,0,0,0,0,0,0,0,0,0,0,0,0,0,0,0,0,0,0,0,0,0,0,0,0,0,0,0,0,0,0,0,0,0,0,0,0,0,0,0,0,0,0,0,0,0,0,0,0,0,0,0,0,0,0,0,0,0,0,0,0,0,0,0,0,0,0,0,0,0,0,0,0,0,0,0,0,0,0,0,0,0,0,0,0,0,0,0,0,0,0,0,0,0,0,0,0,0,0,0,0,0,0,0,0,0,0,0,0,0,0,0,0,0,0,0,0,0,0,0,0,0,0,0,0,0,0,0,0,0,0,0,0,0,1293,0,0,0,0,0,0,0,0,0,0,0,0,0,0,0,0,0,0,0,0,0,0,0,0,0,0,0,0,0,0,0,0,0,0,0,0,0,0,0,0,0,0,0,0,0,0,0,0,0,0,0,0,0,0,0,0,1314,0,0,0,0,0,0,0,0,0,0,0,0,0,0,0,0,0,0,0,0,0,0,0,0,0,0,0,0,0,0,1296,0,0,0,0,0,0,0,0,0,0,0,0,0,0,0,0,0,0,0,0,0,0,0,0,0,0,0,0,0,0,0,0,0,0,0,0,0,0,0,0,0,0,1298,0,0,0,0,0,0,0,0,0,0,0,0,0,1315,0,0,0,0,0,0,0,0,0,0,0,1292,0,0,0,0,0,1292,0,0,0,0,0,0,0,0,0,0,0,0,0,0,0,0,0,0,0,0,0,0,0,0,0,0,0,0,0,0,0,0,0,0,0,0,0,0,0,0,0,0,0,0,0,0,0,0,0,0,0,0,0,0,0,0,0,0,0,0,0,0,0,0,0,0,0,0,0,0,0,0,0,0,0,0,0,0,0,0,0,0,0,0,0,0,0,0,0,0,0,0,0,0,0,0,0,0,0,0,0,0,0,0,0,0,0,0,0,1298,1293,0,0,0,0,0,0,0,0,0,0,0,0,0,0,0,0,0,0,0,0,0,0,0,0,0,0,0,0,0,0,0,0,0,0,0,0,0,0,0,0,0,0,0,0,0,0,0,0,0,0,0,0,0,0,0,0,0,0,0,0,0,0,0,0,0,0,0,0,0,0,0,0,0,0,0,0,0,0,0,0,1316,0,0,0,0,0,0,0,0,0,0,0,0,0,0,0,0,0,0,0,0,0,0,0,0,0,0,0,0,0,0,0,0,0,0,0,0,0,0,0,0,0,0,0,0,0,0,0,0,0,0,1292,0,0,0,0,0,0,1297,0,0,0,0,0,0,0,0,0,0,0,0,0,0,0,0,0,0,0,0,0,0,0,0,1315,0,0,0,0,0,0,0,0,0,0,0,1296,0,0,0,0,0,0,0,0,0,0,0,0,0,0,0,0,0,0,0,0,0,0,1319,0,0,1315,0,0,0,0,0,0,0,0,0,0,0,0,0,0,0,0,0,0,0,0,0,0,0,0,0,0,0,0,0,0,0,0,0,0,0,0,0,0,0,0,0,0,0,0,0,0,0,0,0,0,0,0,0,0,0,0,0,0,0,0,0,0,0,0,1293,0,0,1315,0,0,0,0,0,0,0,0,0,0,0,0,0,0,0,0,0,1313,0,0,0,0,0,0,0,0,0,0,0,0,0,0,0,0,0,0,0,0,0,0,0,0,0,0,0,0,0,0,0,0,0,0,0,0,0,0,0,0,0,0,0,0,0,0,0,0,0,0,0,0,0,0,0,0,0,0,0,0,0,0,0,0,0,1298,0,0,0,0,0,0,0,0,0,0,0,0,0,0,0,0,0,0,0,0,1294,0,0,0,0,0,0,0,0,0,0,0,0,0,0,0,0,0,0,0,0,0,0,0,0,0,0,0,0,0,0,0,0,0,0,0,0,0,0,0,0,0,0,0,0,0,0,0,0,0,0,0,0,0,0,0,0,0,0,0,0,0,0,0,0,0,0,0,0,0,0,0,0,0,0,0,0,0,0,0,0,0,0,0,0,0,0,0,0,0,0,0,0,0,0,0,1296,0,0,0,0,0,0,0,1315,0,0,0,0,0,0,0,0,0,0,1292,0,0,0,0,0,0,0,0,0,0,0,0,0,0,0,0,0,0,0,0,0,0,0,0,0,0,0,0,0,0,0,0,0,0,0,0,0,0,0,0,0,1316,0,0,0,0,0,0,0,0,0,0,0,0,0,0,0,0,0,0,0,1314,0,0,0,0,0,0,0,0,0,0,0,0,0,0,0,0,0,0,0,0,0,0,0,0,0,0,0,0,0,0,0,0,0,0,0,0,0,0,0,0,0,0,0,0,0,0,0,0,0,0,0,0,0,1313,0,0,0,0,0,0,0,0,0,0,1293,0,0,0,0,1316,0,0,0,0,0,0,0,0,0,0,0,0,0,1298,0,0,0,0,0,0,0,0,0,0,0,0,0,0,0,0,0,0,0,0,0,0,0,0,0,0,0,0,0,0,0,0,0,0,0,0,0,0,0,0,0,0,0,0,0,0,0,0,0,0,0,0,0,0,0,0,0,0,0,0,0,0,0,0,0,0,0,0,0,0,0,0,0,0,0,0,0,0,0,0,0,0,0,0,0,0,0,0,0,0,0,0,0,0,0,0,0,0,0,0,1298,0,0,0,0,0,0,0,0,0,0,0,0,0,0,0,0,0,0,0,0,0,0,0,0,0,0,0,0,1292,0,0,1293,0,0,0,0,0,0,0,0,0,0,0,0,0,0,0,0,0,0,0,0,0,0,0,0,0,0,0,0,0,0,0,1294,0,0,0,0,0,0,0,0,0,0,0,0,0,0,0,1314,0,0,0,0,0,1293,0,0,0,0,0,0,0,0,0,0,0,0,0,0,0,0,0,0,0,0,0,0,0,0,0,0,0,0,0,0,0,0,0,0,0,0,0,0,0,0,0,0,0,0,0,0,1314,0,0,0,0,0,0,0,0,0,0,0,0,0,0,0,0,0,0,0,0,0,0,0,0,0,0,0,0,0,0,0,0,0,0,0,0,0,0,0,0,0,0,0,0,0,0,0,0,0,0,0,0,0,0,0,0,0,0,0,0,0,0,0,0,0,0,0,0,0,0,0,0,0,0,0,0,0,0,0,0,0,0,0,0,0,0,0,0,0,0,0,0,0,0,0,0,0,0,0,0,0,0,0,0,0,0,0,0,0,0,0,0,0,0,0,0,0,0,0,0,0,0,0,0,0,0,0,0,0,0,0,0,0,0,0,0,0,0,0,0,0,0,0,0,0,0,0,0,0,0,0,0,0,0,0,0,0,0,0,0,0,0,0,0,0,0,0,0,0,0,0,0,0,0,0,0,0,0,0,0,0,0,0,0,0,0,0,0,0,0,0,0,0,0,0,0,0,0,0,0,0,0,0,0,0,0,0,0,0,0,0,0,0,0,0,0,0,0,0,0,0,0,0,0,0,0,0,0,0,0,0,0,0,0,0,0,0,0,0,0,0,0,0,0,0,0,0,0,0,0,0,0,0,0,0,0,0,0,0,0,0,0,0,0,0,0,0,0,0,0,0,0,0]},{"id":3,"name":"low","type":"tilelayer","x":0,"y":0,"width":64,"height":44,"opacity":1,"visible":true,"data":[0,0,0,0,0,0,0,0,0,0,0,0,0,0,0,0,0,0,0,0,0,0,0,0,0,0,0,0,0,0,0,0,0,0,0,0,0,0,0,0,0,0,0,0,0,0,0,0,0,0,0,0,0,0,0,0,0,0,0,0,0,0,0,0,1089,1090,1075,1076,1075,1076,1091,1092,1075,1076,1075,1076,1075,1076,1091,1092,1075,1076,1073,1074,1089,1090,1075,1076,1073,1074,1075,1076,1075,1076,1075,1076,1091,1092,1091,1092,1075,1076,1091,1092,1075,1076,1271,1272,1271,1272,1075,1076,1075,1076,1075,1076,1075,1076,1089,1090,1075,1076,1075,1076,1075,1076,1075,1076,0,0,0,0,0,0,0,0,0,0,0,0,0,0,0,0,0,0,0,0,0,0,0,0,0,0,0,0,0,0,0,0,0,0,0,0,0,0,0,0,0,0,0,0,0,0,0,0,0,0,0,0,0,0,0,0,0,0,0,0,0,0,0,0,0,1075,1076,1075,1076,1075,1076,1075,1076,1075,1076,1075,1076,1271,1272,1075,1076,1075,1076,1075,1076,1091,1092,1073,1074,1075,1076,1075,1076,1075,1076,1089,1090,1075,1076,1075,1076,1089,1090,1075,1076,1089,1090,1091,1092,1075,1076,1073,1074,1073,1074,1075,1076,1075,1076,1073,1074,1091,1092,1075,1076,1075,1076,0,0,0,0,0,0,0,0,0,0,0,0,0,0,0,0,0,0,0,0,0,0,0,0,0,0,0,0,0,0,0,0,0,0,0,0,0,0,0,0,0,0,0,0,0,0,0,0,0,0,0,0,0,0,0,0,0,0,0,0,0,0,0,0,0,1089,1090,1075,1076,1075,1076,1075,1076,1075,1076,1073,1074,1075,1076,1073,1074,1075,1076,1271,1272,0,0,1089,1090,1075,1076,1075,1076,1075,1076,1091,1092,1075,1076,1089,1090,1089,1090,0,0,0,0,1075,1076,0,0,0,0,0,0,0,0,0,0,0,0,0,0,1075,1076,1271,1272,1271,1272,0,0,0,0,0,0,0,0,0,1299,0,1344,0,0,0,0,0,0,0,0,0,0,0,0,0,0,0,0,0,0,0,0,0,0,0,0,0,0,0,0,1075,1076,0,0,0,0,0,0,0,0,0,0,0,0,0,0,0,0,0,0,0,0,0,0,0,1091,1092,0,0,0,0,0,0,0,0,0,0,0,0,0,0,0,0,1290,0,0,0,0,0,0,0,0,0,0,0,0,0,0,0,0,0,0,0,0,0,0,0,0,0,0,0,0,0,1593,1594,1595,1596,0,0,0,0,0,0,1075,1076,1075,1076,0,0,0,0,0,0,0,0,0,0,0,0,0,0,0,0,0,0,1075,1076,0,0,0,1091,1092,0,0,0,0,0,0,0,0,0,0,0,0,0,0,0,0,1299,0,0,0,0,0,1655,0,0,0,0,0,0,0,0,1655,0,0,0,0,0,0,0,0,1089,1090,1073,1074,1075,1076,0,0,0,0,0,0,0,0,0,1075,1076,0,0,1271,1272,0,0,0,0,0,0,0,0,0,0,0,0,0,0,0,0,0,0,0,0,0,0,0,0,0,0,0,0,0,0,0,0,0,0,0,0,0,0,0,1091,1092,1089,1090,0,0,0,0,0,0,0,0,0,0,0,0,0,0,0,0,0,0,0,0,0,0,0,0,0,1075,1076,0,0,0,0,0,0,0,0,0,0,0,0,0,0,0,0,0,0,0,0,0,0,0,0,0,0,0,0,0,0,0,0,0,0,0,0,0,0,1073,1074,1271,1272,0,0,0,0,1344,1345,0,0,0,0,0,0,1073,1074,1091,1092,1271,1272,0,0,0,0,0,0,0,0,0,0,0,0,0,0,0,0,0,0,0,0,0,0,0,0,0,0,0,0,0,0,0,0,0,0,0,0,1089,1090,1073,1074,0,0,0,0,0,0,0,0,0,0,0,0,0,0,0,0,0,0,0,0,0,0,0,0,0,0,0,0,1089,1090,0,0,0,0,1091,1092,1089,1090,0,1271,1272,0,0,0,0,0,0,0,0,0,0,0,0,0,0,0,0,0,0,0,0,0,0,0,0,1089,1090,1089,1090,1091,1092,0,0,0,0,0,0,0,0,0,0,0,0,0,0,0,0,0,0,1271,1272,0,0,0,0,0,0,0,0,0,0,0,0,0,0,0,0,0,0,0,0,0,0,0,0,0,0,0,0,0,0,0,0,0,0,1073,1074,1091,1092,0,0,0,0,0,0,0,0,0,0,0,0,0,0,0,0,0,0,0,1271,1272,0,0,0,0,0,0,1073,1074,0,0,0,0,0,0,0,1089,1090,0,0,0,0,0,0,0,0,0,0,0,0,0,0,0,0,0,0,0,0,0,0,0,0,0,0,0,1089,1090,1091,1092,0,0,0,0,0,0,0,0,0,0,0,1271,1272,0,0,0,1089,1090,1091,1092,0,0,0,0,0,0,1089,1090,0,0,0,0,0,0,0,0,0,0,0,0,0,0,0,0,0,0,0,0,0,0,0,0,0,0,1091,1092,1089,1090,0,0,0,0,0,1345,0,0,0,0,0,0,0,0,0,0,0,0,0,0,1089,1090,0,0,0,0,0,0,0,0,0,0,0,0,0,1073,1074,0,0,0,0,0,0,0,0,0,0,0,0,0,0,0,0,0,0,0,0,0,0,0,0,0,0,0,0,1271,1272,1091,1092,0,0,0,0,0,0,0,0,0,0,0,0,0,0,0,0,0,0,0,0,0,0,0,0,0,0,0,0,0,0,0,0,0,0,0,0,0,0,0,0,0,0,0,0,0,0,0,0,0,0,0,0,1091,1092,0,0,1089,1090,1271,1272,0,0,0,0,0,1290,0,0,1245,0,0,0,0,0,0,0,0,0,0,0,0,0,0,0,0,0,1290,0,0,0,0,0,0,0,0,0,0,0,0,0,0,0,0,0,0,1290,0,1344,1073,1074,0,0,1091,1092,0,0,0,0,0,0,0,0,0,0,0,0,0,0,0,0,0,0,0,0,0,0,0,0,0,0,0,0,0,0,0,0,0,0,0,0,0,0,0,0,0,0,0,0,0,0,0,0,0,0,0,0,0,0,0,0,0,0,0,0,0,0,0,0,0,0,0,0,0,0,0,1073,1074,0,0,0,0,0,0,0,0,0,0,0,0,0,0,0,0,0,0,0,0,0,0,0,0,0,0,0,0,0,0,0,0,0,0,0,0,0,0,0,0,0,0,0,0,0,0,0,0,0,0,0,0,0,0,0,0,0,0,0,0,0,0,0,0,0,0,0,0,0,0,0,0,0,0,0,0,0,0,0,0,0,0,0,0,0,0,0,0,0,0,0,0,0,0,0,0,0,0,0,0,0,0,0,0,0,0,0,0,1089,1090,0,0,0,0,0,0,0,0,1345,0,0,0,0,1073,1074,1073,1074,1073,1074,0,0,0,0,0,0,0,0,0,0,0,0,0,0,0,0,0,0,0,0,0,0,0,0,0,0,0,0,0,0,0,0,0,0,0,0,0,0,0,0,0,0,0,0,0,0,0,0,0,1245,0,1245,0,0,0,0,0,0,0,0,0,0,0,0,0,0,0,0,0,0,0,0,0,0,0,0,0,0,0,0,0,0,0,0,0,0,0,0,0,0,0,0,0,0,0,0,0,0,0,0,0,0,0,0,0,0,1089,1090,0,0,0,0,0,0,0,0,0,0,1091,1092,0,0,0,1271,1272,1089,1090,0,0,0,0,0,0,0,0,0,0,0,0,0,0,0,0,0,0,0,0,0,0,0,0,0,0,0,0,0,0,0,0,0,0,0,0,0,0,0,0,0,1073,1074,0,0,0,0,0,0,0,0,0,0,0,0,0,0,0,0,0,0,0,0,0,0,0,0,0,0,0,0,0,0,0,0,0,0,0,0,0,0,0,0,0,0,0,0,0,0,0,0,0,0,0,0,0,0,0,0,0,0,0,0,0,0,0,0,0,0,0,0,1091,1092,1089,1090,1295,0,0,0,0,0,1271,1272,1089,1090,1271,1272,1271,1272,0,0,0,0,0,0,0,0,0,0,0,0,0,0,0,0,0,0,0,0,0,0,0,1073,1074,0,0,0,0,0,0,0,0,0,0,0,0,0,0,0,0,0,0,0,0,0,0,0,0,0,0,0,0,0,0,0,0,0,0,0,0,0,0,0,0,1073,1074,1271,1272,0,0,0,0,0,0,0,0,0,0,0,0,0,1091,1092,0,0,0,0,0,0,0,0,0,0,0,0,0,0,0,0,0,0,0,0,1091,1092,0,0,0,0,0,0,1089,1090,0,1091,1092,0,0,0,0,0,0,0,0,1089,1090,0,0,0,0,0,0,0,0,0,0,0,0,0,0,1271,1272,0,0,0,0,0,0,0,1271,1272,0,0,0,0,0,0,0,0,0,0,0,0,0,0,0,0,0,0,0,0,0,0,1091,1092,0,0,0,0,0,0,0,0,0,0,0,0,0,0,0,0,1073,1074,1091,1092,0,0,0,0,0,0,0,0,0,0,0,0,1271,1272,0,0,0,0,0,0,0,0,0,0,0,0,0,0,0,0,0,0,0,1271,1272,0,1290,0,0,0,0,0,0,0,0,0,0,0,1089,1090,0,0,0,0,1073,1074,1073,1074,1091,1092,0,0,0,0,0,0,0,0,0,0,0,0,0,0,0,0,0,0,0,0,0,0,0,0,0,0,0,0,0,0,0,0,0,0,0,1091,1092,0,0,0,0,0,0,0,0,0,0,1271,1272,0,0,0,0,0,1091,1092,0,0,0,0,0,0,0,0,0,1271,1272,0,0,0,0,0,0,0,0,0,0,0,0,0,0,0,0,0,0,0,0,0,0,0,0,0,0,0,0,1073,1074,0,0,0,0,0,0,0,0,0,0,0,0,0,0,0,0,0,0,0,0,0,0,0,0,0,0,1091,1092,1089,1090,0,0,0,0,0,0,0,0,0,0,0,0,0,0,0,0,0,0,0,0,0,0,0,0,0,0,0,0,0,0,0,0,0,0,0,0,0,0,0,0,0,0,0,0,0,0,0,1089,1090,1073,1074,1271,1272,1091,1092,1089,1090,0,0,0,0,0,0,0,0,1271,1272,1271,1272,0,0,0,0,0,0,0,0,0,0,0,0,0,0,0,0,0,0,0,0,0,0,0,0,0,0,0,0,0,0,1289,1089,1090,1365,0,0,0,0,0,0,0,0,0,0,0,0,0,0,0,0,0,0,0,0,1091,1092,1271,1272,1271,1272,0,0,0,0,0,0,0,0,0,0,0,0,0,0,0,0,0,0,0,0,0,0,0,0,0,0,0,0,0,0,0,0,1089,1090,0,0,0,0,0,0,0,0,0,0,0,0,0,0,0,0,0,0,0,1245,0,0,0,0,0,0,0,0,0,0,0,1073,1074,0,0,0,0,0,0,0,0,0,0,0,0,0,0,0,0,0,0,0,0,0,0,0,0,0,0,0,0,0,0,0,0,0,1089,1090,0,0,0,0,0,1271,1272,0,0,0,0,0,0,0,0,0,0,1271,1272,1073,1074,0,0,1091,1092,0,0,0,0,0,0,0,0,0,0,0,0,0,0,0,0,0,0,0,0,0,0,0,0,0,0,1089,1090,0,1345,1271,1272,0,0,0,0,0,0,0,0,0,0,0,0,0,0,0,0,0,0,0,1271,1272,1073,1074,0,0,0,0,0,0,0,0,0,0,1271,1272,1271,1272,0,0,0,0,0,0,0,0,0,0,0,0,0,0,1091,1092,0,0,1073,1074,0,0,0,0,0,0,0,0,0,1073,1074,0,0,1089,1090,0,0,0,0,0,0,0,0,0,0,0,0,0,0,0,0,1345,0,1291,1089,1090,1091,1092,1073,1074,0,0,0,0,0,0,0,0,0,0,0,0,0,0,0,0,0,0,0,0,0,0,0,0,0,0,0,0,0,0,0,0,0,0,0,0,0,0,0,0,0,0,0,0,0,0,0,0,0,1345,0,0,0,0,0,0,0,0,0,0,0,0,0,0,0,1271,1272,0,0,0,0,0,0,0,0,0,0,0,0,0,0,1089,1090,1271,1272,1271,1272,1271,1272,1271,1272,1073,1074,1271,1272,1073,1074,0,1365,1089,1090,1271,1272,1089,1090,0,0,0,0,0,0,1073,1074,0,1344,1089,1090,1271,1272,1271,1272,0,0,1091,1092,1089,1090,0,0,0,0,0,0,0,0,0,0,0,0,0,0,0,0,0,0,0,0,0,0,0,0,0,0,0,0,0,0,0,0,0,0,0,0,0,0,0,0,0,0,0,0,0,0,0,0,0,0,0,0,0,0,0,0,0,0,0,0,0,0,0,0,0,1091,1092,1271,1272,1073,1074,1091,1092,1091,1092,1073,1074,1073,1074,1091,1092,1091,1092,1271,1272,1089,1090,1073,1074,1091,1092,1271,1272,1073,1074,1073,1074,1091,1092,1091,1092,1089,1090,1271,1272,1073,1074,1091,1092,1089,1090,1271,1272,1073,1074,1073,1074,1089,1090,1091,1092,1091,1092,1073,1074,1073,1074,1271,1272,0,0,0,0,0,0,0,0,0,0,0,0,0,0,0,0,0,0,0,0,0,0,0,0,0,0,0,0,0,0,0,0,0,0,0,0,0,0,0,0,0,0,0,0,0,0,0,0,0,0,0,0,0,0,0,0,0,0,0,0,0,0,0,0,0,1073,1074,1271,1272,1091,1092,1271,1272,1089,1090,1073,1074,1089,1090,1089,1090,1271,1272,1089,1090,1073,1074,1073,1074,1073,1074,1073,1074,1271,1272,1271,1272,1271,1272,1091,1092,1073,1074,1271,1272,1271,1272,1091,1092,1091,1092,1089,1090,1091,1092,1073,1074,1091,1092,1271,1272,1091,1092,1091,1092,1091,1092,0]},{"id":4,"name":"high","type":"tilelayer","x":0,"y":0,"width":64,"height":44,"opacity":1,"visible":true,"data":[1065,1066,1051,1052,1051,1052,1067,1068,1051,1052,1051,1052,1051,1052,1067,1068,1051,1052,1049,1050,1065,1066,1051,1052,1049,1050,1051,1052,1051,1052,1051,1052,1067,1068,1067,1068,1051,1052,1067,1068,1051,1052,1247,1248,1247,1248,1051,1052,1051,1052,1051,1052,1051,1052,1065,1066,1051,1052,1051,1052,1051,1052,1051,1052,0,0,0,0,0,0,0,0,0,0,0,0,0,0,0,0,0,0,0,0,0,0,0,0,0,0,0,0,0,0,0,0,0,0,0,0,0,0,0,0,0,0,0,0,0,0,0,0,0,0,0,0,0,0,0,0,0,0,0,0,0,0,0,0,0,1051,1052,1051,1052,1051,1052,1051,1052,1051,1052,1051,1052,1247,1248,1051,1052,1051,1052,1051,1052,1067,1068,1049,1050,1051,1052,1051,1052,1051,1052,1065,1066,1051,1052,1051,1052,1065,1066,1051,1052,1065,1066,1067,1068,1051,1052,1049,1050,1049,1050,1051,1052,1051,1052,1049,1050,1067,1068,1051,1052,1051,1052,0,0,0,0,0,0,0,0,0,0,0,0,0,0,0,0,0,0,0,0,0,0,0,0,0,0,0,0,0,0,0,0,0,0,0,0,0,0,0,0,0,0,0,0,0,0,0,0,0,0,0,0,0,0,0,0,0,0,0,0,0,0,0,0,0,1065,1066,1051,1052,1051,1052,1051,1052,1051,1052,1049,1050,1051,1052,1049,1050,1051,1052,1247,1248,0,0,1065,1066,1051,1052,1051,1052,1051,1052,1067,1068,1051,1052,1065,1066,1065,1066,0,0,0,0,1051,1052,0,0,0,0,0,0,0,0,0,0,0,0,0,0,1051,1052,1247,1248,1247,1248,0,0,0,0,0,0,0,0,0,0,0,0,0,0,0,0,0,0,0,0,0,0,0,0,0,0,0,0,0,0,0,0,0,0,0,0,0,0,0,0,1051,1052,0,0,0,0,0,0,0,1553,1554,1555,1556,0,0,0,0,0,0,0,0,0,0,0,0,1067,1068,0,0,0,0,0,0,0,0,0,0,0,0,0,0,0,0,0,0,0,0,0,0,0,0,0,0,0,0,0,0,0,0,0,0,0,0,0,0,0,0,0,0,0,1615,0,0,1573,1574,1575,1576,0,0,1615,0,0,0,1051,1052,1051,1052,0,0,0,0,0,0,0,0,0,0,0,0,0,0,0,0,0,0,1051,1052,0,0,0,1067,1068,0,0,0,0,0,0,0,0,0,0,0,0,0,0,0,0,0,0,0,0,0,0,1635,0,0,0,0,0,0,0,0,1635,0,0,0,0,0,0,0,0,1065,1066,1049,1050,1051,1052,0,0,0,0,0,0,0,0,0,1051,1052,0,0,1247,1248,0,0,0,0,0,0,0,0,0,0,0,0,0,0,0,0,0,0,0,0,0,0,0,0,0,0,0,0,0,0,0,0,0,0,0,0,0,0,0,1067,1068,1065,1066,0,0,0,0,0,0,0,0,0,0,0,0,0,0,0,0,0,0,0,0,0,0,0,0,0,1051,1052,0,0,0,0,0,0,0,0,0,0,0,0,0,0,0,0,0,0,0,0,0,0,0,0,0,0,0,0,0,0,0,0,0,0,0,0,0,0,1049,1050,1247,1248,0,0,0,0,0,0,0,0,0,0,0,0,1049,1050,1067,1068,1247,1248,0,0,0,0,0,0,0,0,0,0,0,0,0,0,0,0,0,0,0,0,0,0,0,0,0,0,0,0,0,0,0,0,0,0,0,0,1065,1066,1049,1050,0,0,0,0,0,0,0,0,0,0,0,0,0,0,0,0,0,0,0,0,0,0,0,0,0,0,0,0,1065,1066,0,0,0,0,1067,1068,1065,1066,0,1247,1248,0,0,0,0,0,0,0,0,0,0,0,0,0,0,0,0,0,0,0,0,0,0,0,0,1065,1066,1065,1066,1067,1068,0,0,0,0,0,0,0,0,0,0,0,0,0,0,0,0,0,0,1247,1248,0,0,0,0,0,0,0,0,0,0,0,0,0,0,0,0,0,0,0,0,0,0,0,0,0,0,0,0,0,0,0,0,0,0,1049,1050,1067,1068,0,0,0,0,0,0,0,0,0,0,0,0,0,0,0,0,0,0,0,1247,1248,0,0,0,0,0,0,1049,1050,0,0,0,0,0,0,0,1065,1066,0,0,0,0,0,0,0,0,0,0,0,0,0,0,0,0,0,0,0,0,0,0,0,0,0,0,0,1065,1066,1067,1068,0,0,0,0,0,0,0,0,0,0,0,1247,1248,0,0,0,1065,1066,1067,1068,0,0,0,0,0,0,1065,1066,0,0,0,0,0,0,0,0,0,0,0,0,0,0,0,0,0,0,0,0,0,0,0,0,0,0,1067,1068,1065,1066,0,0,0,0,0,0,0,0,0,0,0,0,0,0,0,0,0,0,0,0,1065,1066,0,0,0,0,0,0,0,0,0,0,0,0,0,1049,1050,0,0,0,0,0,0,0,0,0,0,0,0,0,0,0,0,0,0,0,0,0,0,0,0,0,0,0,0,1247,1248,1067,1068,0,0,0,0,0,0,0,0,0,0,0,0,0,0,0,0,0,0,0,0,0,0,0,0,0,0,0,0,0,0,0,0,0,0,0,0,0,0,0,0,0,0,0,0,0,0,0,0,0,0,0,0,1067,1068,0,0,1065,1066,1247,1248,0,0,0,0,0,0,0,0,0,0,0,0,0,0,0,0,0,0,0,0,0,0,0,0,0,0,0,0,0,0,0,0,0,0,0,0,0,0,0,0,0,0,0,0,0,0,0,0,1049,1050,0,0,1067,1068,0,0,0,0,0,0,0,0,0,0,0,0,0,0,0,0,0,0,0,0,0,0,0,0,0,0,0,0,0,0,0,0,0,0,0,0,0,0,0,0,0,0,0,0,0,0,0,0,0,0,0,0,0,0,0,0,0,0,0,0,0,0,0,0,0,0,0,0,0,0,0,1049,1050,0,0,0,0,0,0,0,0,0,0,0,0,0,0,0,0,0,0,0,0,0,0,0,0,0,0,0,0,0,0,0,0,0,0,0,0,0,0,0,0,0,0,0,0,0,0,0,0,0,0,0,0,0,0,0,0,0,0,0,0,0,0,0,0,0,0,0,0,0,0,0,0,0,0,0,0,0,0,0,0,0,0,0,0,0,0,0,0,0,0,0,0,0,0,0,0,0,0,0,0,0,0,0,0,0,0,0,0,1065,1066,0,0,0,0,0,0,0,0,0,0,0,0,0,1049,1050,1049,1050,1049,1050,0,0,0,0,0,0,0,0,0,0,0,0,0,0,0,0,0,0,0,0,0,0,0,0,0,0,0,0,0,0,0,0,0,0,0,0,0,0,0,0,0,0,0,0,0,0,0,0,0,0,0,0,0,0,0,0,0,0,0,0,0,0,0,0,0,0,0,0,0,0,0,0,0,0,0,0,0,0,0,0,0,0,0,0,0,0,0,0,0,0,0,0,0,0,0,0,0,0,0,0,0,0,0,0,0,0,1065,1066,0,0,0,0,0,0,0,0,0,0,1067,1068,0,0,0,1247,1248,1065,1066,0,0,0,0,0,0,0,0,0,0,0,0,0,0,0,0,0,0,0,0,0,0,0,0,0,0,0,0,0,0,0,0,0,0,0,0,0,0,0,0,0,1049,1050,0,0,0,0,0,0,0,0,0,0,0,0,0,0,0,0,0,0,0,0,0,0,0,0,0,0,0,0,0,0,0,0,0,0,0,0,0,0,0,0,0,0,0,0,0,0,0,0,0,0,0,0,0,0,0,0,0,0,0,0,0,0,0,0,0,0,0,0,1067,1068,1065,1066,0,0,0,0,0,0,1247,1248,1065,1066,1247,1248,1247,1248,0,0,0,0,0,0,0,0,0,0,0,0,0,0,0,0,0,0,0,0,0,0,0,1049,1050,0,0,0,0,0,0,0,0,0,0,0,0,0,0,0,0,0,0,0,0,0,0,0,0,0,0,0,0,0,0,0,0,0,0,0,0,0,0,0,0,1049,1050,1247,1248,0,0,0,0,0,0,0,0,0,0,0,0,0,1067,1068,0,0,0,0,0,0,0,0,0,0,0,0,0,0,0,0,0,0,0,0,1067,1068,0,0,0,0,0,0,1065,1066,0,1067,1068,0,0,0,0,0,0,0,0,1065,1066,0,0,0,0,0,0,0,0,0,0,0,0,0,0,1247,1248,0,0,0,0,0,0,0,1247,1248,0,0,0,0,0,0,0,0,0,0,0,0,0,0,0,0,0,0,0,0,0,0,1067,1068,0,0,0,0,0,0,0,0,0,0,0,0,0,0,0,0,1049,1050,1067,1068,0,0,0,0,0,0,0,0,0,0,0,0,1247,1248,0,0,0,0,0,0,0,0,0,0,0,0,0,0,0,0,0,0,0,1247,1248,0,0,0,0,0,0,0,0,0,0,0,0,0,1065,1066,0,0,0,0,1049,1050,1049,1050,1067,1068,0,0,0,0,0,0,0,0,0,0,0,0,0,0,0,0,0,0,0,0,0,0,0,0,0,0,0,0,0,0,0,0,0,0,0,1067,1068,0,0,0,0,0,0,0,0,0,0,1247,1248,0,0,0,0,0,1067,1068,0,0,0,0,0,0,0,0,0,1247,1248,0,0,0,0,0,0,0,0,0,0,0,0,0,0,0,0,0,0,0,0,0,0,0,0,0,0,0,0,1049,1050,0,0,0,0,0,0,0,0,0,0,0,0,0,0,0,0,0,0,0,0,0,0,0,0,0,0,1067,1068,1065,1066,0,0,0,0,0,0,0,0,0,0,0,0,0,0,0,0,0,0,0,0,0,0,0,0,0,0,0,0,0,0,0,0,0,0,0,0,0,0,0,0,0,0,0,0,0,0,0,1065,1066,1049,1050,1247,1248,1067,1068,1065,1066,0,0,0,0,0,0,0,0,1247,1248,1247,1248,0,0,0,0,0,0,0,0,0,0,0,0,0,0,0,0,0,0,0,0,0,0,0,0,0,0,0,0,0,0,0,1065,1066,0,0,0,0,0,0,0,0,0,0,0,0,0,0,0,0,0,0,0,0,0,1067,1068,1247,1248,1247,1248,0,0,0,0,0,0,0,0,0,0,0,0,0,0,0,0,0,0,0,0,0,0,0,0,0,0,0,0,0,0,0,0,1065,1066,0,0,0,0,0,0,0,0,0,0,0,0,0,0,0,0,0,0,0,0,0,0,0,0,0,0,0,0,0,0,0,1049,1050,0,0,0,0,0,0,0,0,0,0,0,0,0,0,0,0,0,0,0,0,0,0,0,0,0,0,0,0,0,0,0,0,0,1065,1066,0,0,0,0,0,1247,1248,0,0,0,0,0,0,0,0,0,0,1247,1248,1049,1050,0,0,1067,1068,0,0,0,0,0,0,0,0,0,0,0,0,0,0,0,0,0,0,0,0,0,0,0,0,0,0,1065,1066,0,0,1247,1248,0,0,0,0,0,0,0,0,0,0,0,0,0,0,0,0,0,0,0,1247,1248,1049,1050,0,0,0,0,0,0,0,0,0,0,1247,1248,1247,1248,0,0,0,0,0,0,0,0,0,0,0,0,0,0,1067,1068,0,0,1049,1050,0,0,0,0,0,0,0,0,0,1049,1050,0,0,1065,1066,0,0,0,0,0,0,0,0,0,0,0,0,0,0,0,0,0,0,0,1065,1066,1067,1068,1049,1050,0,0,0,0,0,0,0,0,0,0,0,0,0,0,0,0,0,0,0,0,0,0,0,0,0,0,0,0,0,0,0,0,0,0,0,0,0,0,0,0,0,0,0,0,0,0,0,0,0,0,0,0,0,0,0,0,0,0,0,0,0,0,0,0,0,1247,1248,0,0,0,0,0,0,0,0,0,0,0,0,0,0,1065,1066,1247,1248,1247,1248,1247,1248,1247,1248,1049,1050,1247,1248,1049,1050,0,0,1065,1066,1247,1248,1065,1066,0,0,0,0,0,0,1049,1050,0,0,1065,1066,1247,1248,1247,1248,0,0,1067,1068,1065,1066,0,0,0,0,0,0,0,0,0,0,0,0,0,0,0,0,0,0,0,0,0,0,0,0,0,0,0,0,0,0,0,0,0,0,0,0,0,0,0,0,0,0,0,0,0,0,0,0,0,0,0,0,0,0,0,0,0,0,0,0,0,0,0,0,0,1067,1068,1247,1248,1049,1050,1067,1068,1067,1068,1049,1050,1049,1050,1067,1068,1067,1068,1247,1248,1065,1066,1049,1050,1067,1068,1247,1248,1049,1050,1049,1050,1067,1068,1067,1068,1065,1066,1247,1248,1049,1050,1067,1068,1065,1066,1247,1248,1049,1050,1049,1050,1065,1066,1067,1068,1067,1068,1049,1050,1049,1050,1247,1248,0,0,0,0,0,0,0,0,0,0,0,0,0,0,0,0,0,0,0,0,0,0,0,0,0,0,0,0,0,0,0,0,0,0,0,0,0,0,0,0,0,0,0,0,0,0,0,0,0,0,0,0,0,0,0,0,0,0,0,0,0,0,0,0,0,1049,1050,1247,1248,1067,1068,1247,1248,1065,1066,1049,1050,1065,1066,1065,1066,1247,1248,1065,1066,1049,1050,1049,1050,1049,1050,1049,1050,1247,1248,1247,1248,1247,1248,1067,1068,1049,1050,1247,1248,1247,1248,1067,1068,1067,1068,1065,1066,1067,1068,1049,1050,1067,1068,1247,1248,1067,1068,1067,1068,1067,1068,0,0,0,0,0,0,0,0,0,0,0,0,0,0,0,0,0,0,0,0,0,0,0,0,0,0,0,0,0,0,0,0,0,0,0,0,0,0,0,0,0,0,0,0,0,0,0,0,0,0,0,0,0,0,0,0,0,0,0,0,0,0,0,0,0]},{"id":5,"name":"collide","type":"tilelayer","x":0,"y":0,"width":64,"height":44,"opacity":1,"visible":false,"data":[265,265,265,265,265,265,265,265,265,265,265,265,265,265,265,265,265,265,265,265,265,265,265,265,265,265,265,265,265,265,265,265,265,265,265,265,265,265,265,265,265,265,265,265,265,265,265,265,265,265,265,265,265,265,265,265,265,265,265,265,265,265,265,265,265,265,265,265,265,265,265,265,265,265,265,265,265,265,265,265,265,265,265,265,265,265,265,265,265,265,265,265,265,265,265,265,265,265,265,265,265,265,265,265,265,265,265,265,265,265,265,265,265,265,265,265,265,265,265,265,265,265,265,265,265,265,265,265,265,0,0,0,0,0,0,0,0,0,0,0,0,0,0,0,0,0,0,0,0,0,0,0,0,0,0,0,0,0,0,0,0,0,0,0,0,0,0,0,0,0,0,0,0,0,0,0,0,0,0,0,0,0,0,0,0,0,0,0,0,0,0,265,265,265,265,265,265,265,265,265,265,265,265,265,265,265,265,265,265,265,265,265,265,265,265,265,265,265,265,265,265,265,265,265,265,265,265,265,265,265,265,265,265,265,265,265,265,265,265,265,265,265,265,265,265,265,265,265,265,265,265,265,265,265,265,265,265,0,0,0,0,0,0,0,0,0,0,0,0,0,0,0,0,0,0,0,0,0,0,0,0,0,0,0,0,0,0,0,0,0,0,0,0,0,0,0,0,0,0,0,0,0,0,0,0,0,0,0,0,0,0,0,0,0,0,0,0,0,0,265,265,265,265,265,265,265,265,265,265,265,265,265,265,265,265,265,265,265,265,265,0,0,265,265,265,265,265,265,265,265,265,265,265,265,265,265,265,265,0,0,0,0,265,265,0,0,0,0,0,0,0,0,0,0,0,0,0,0,265,265,265,265,265,265,265,0,0,0,0,0,0,0,0,265,0,265,0,0,0,0,0,0,0,0,0,0,0,0,0,0,0,0,0,0,0,0,0,0,0,0,0,0,0,0,265,265,0,0,0,0,0,0,0,265,265,265,265,0,0,0,0,0,0,0,0,0,0,265,265,265,265,0,0,0,0,0,0,0,0,0,0,0,0,0,0,0,0,265,0,0,0,0,0,0,0,0,0,0,0,0,0,0,0,0,0,0,0,0,0,0,0,0,0,0,0,0,0,265,265,265,265,0,0,0,0,0,0,265,265,265,265,265,265,0,0,0,0,0,0,0,0,0,0,0,0,0,0,0,0,265,265,0,0,0,265,265,0,0,0,0,0,0,0,0,0,0,0,0,0,0,0,0,265,0,0,0,0,0,265,0,0,0,0,0,0,0,0,265,0,0,0,0,0,0,0,265,265,265,265,265,265,265,0,0,0,0,0,0,0,0,0,265,265,0,0,265,265,0,0,0,0,0,0,0,0,0,0,0,0,0,0,0,0,0,0,0,0,0,0,0,0,0,0,0,0,0,0,0,0,0,0,0,0,0,0,0,265,265,265,265,265,0,0,0,0,0,0,0,0,0,0,0,0,0,0,0,0,0,0,0,0,0,0,0,0,265,265,0,0,0,0,0,0,0,0,0,0,0,0,0,0,0,0,0,0,0,0,0,0,0,0,0,0,0,0,0,0,0,0,0,0,0,0,265,265,265,265,265,265,0,0,0,0,265,265,0,0,0,0,0,0,265,265,265,265,265,265,0,0,0,0,0,0,0,0,0,0,0,0,0,0,0,0,0,0,0,0,0,0,0,0,0,0,0,0,0,0,0,0,0,0,0,0,265,265,265,265,265,265,0,0,0,0,0,0,0,0,0,0,0,0,0,0,0,0,0,0,0,0,0,0,0,0,0,0,265,265,0,0,0,0,265,265,265,265,0,265,265,0,0,0,0,0,0,0,0,0,0,0,0,0,0,0,0,0,0,0,0,0,0,0,265,265,265,265,265,265,265,0,0,0,0,0,0,0,0,0,0,0,0,0,0,0,0,0,0,265,265,0,0,0,0,0,0,0,0,0,0,0,0,0,0,0,0,0,0,0,0,0,0,0,0,0,0,0,0,0,0,0,0,0,0,265,265,265,265,265,0,0,0,0,0,0,0,0,0,0,0,0,0,0,0,0,0,0,265,265,0,0,0,0,0,0,265,265,0,0,0,0,0,0,0,265,265,0,0,0,0,0,0,0,0,0,0,0,0,0,0,0,0,0,0,0,0,0,0,0,0,0,265,265,265,265,265,265,0,0,0,0,0,0,0,0,0,0,0,265,265,0,0,0,265,265,265,265,0,0,0,0,0,0,265,265,0,0,0,0,0,0,0,0,0,0,0,0,0,0,0,0,0,0,0,0,0,0,0,0,0,0,265,265,265,265,265,265,0,0,0,265,0,0,0,0,0,0,0,0,0,0,0,0,0,0,265,265,0,0,0,0,0,0,0,0,0,0,0,0,0,265,265,0,0,0,0,0,0,0,0,0,0,0,0,0,0,0,0,0,0,0,0,0,0,0,0,0,0,0,265,265,265,265,265,0,0,0,0,0,0,0,0,0,0,0,0,0,0,0,0,0,0,0,0,0,0,0,0,0,0,0,0,0,0,0,0,0,0,0,0,0,0,0,0,0,0,0,0,0,0,0,0,0,0,0,0,265,265,0,0,265,265,265,265,265,0,0,0,0,265,0,0,265,0,0,0,0,0,0,0,0,0,0,0,0,0,0,0,0,0,265,0,0,0,0,0,0,0,0,0,0,0,0,0,0,0,0,0,0,265,0,265,265,265,0,0,265,265,0,0,0,0,0,0,0,0,0,265,265,0,0,0,0,0,0,0,0,0,0,0,0,0,0,0,0,0,0,0,0,0,0,0,0,0,0,0,0,0,0,0,0,0,0,0,0,0,0,0,0,0,0,0,0,0,0,0,0,0,0,0,0,0,0,0,0,0,0,0,0,265,265,265,0,0,0,0,0,0,0,0,0,0,0,0,0,0,0,0,0,0,0,0,0,0,0,0,0,0,0,0,0,0,0,0,0,0,0,0,0,0,0,0,0,0,0,0,0,0,0,0,0,0,0,0,0,0,0,0,0,0,0,0,0,0,0,265,0,0,0,0,0,0,0,0,0,0,0,0,0,0,0,0,0,0,0,0,0,0,0,0,0,0,0,0,0,0,0,0,0,0,0,0,0,0,0,0,0,0,0,265,265,0,0,0,0,0,0,0,0,265,0,0,0,0,265,265,265,265,265,265,0,0,0,0,0,0,0,0,0,0,0,0,0,0,0,0,0,0,0,0,0,0,0,0,0,0,0,0,0,0,0,0,0,0,0,0,0,0,0,0,0,0,0,0,0,0,0,0,0,265,0,265,0,0,0,0,0,0,0,0,0,0,0,265,265,0,0,0,0,0,0,0,0,0,0,0,0,0,0,0,0,0,0,0,0,0,0,0,0,0,0,0,0,0,0,0,0,0,0,0,0,0,0,0,0,0,265,265,0,0,0,0,0,0,0,0,0,0,265,265,0,0,0,265,265,265,265,265,265,0,0,0,0,0,0,0,0,0,0,0,0,0,0,0,0,0,0,0,0,0,0,0,0,0,0,0,0,0,0,0,0,0,0,0,0,0,0,0,265,265,0,0,0,0,0,0,0,0,0,0,0,0,0,0,0,0,0,0,0,0,0,265,265,0,0,0,0,0,0,0,0,0,0,0,0,0,0,0,0,0,0,0,0,0,0,0,0,0,0,0,0,0,0,0,0,0,0,0,0,0,0,0,0,0,0,0,0,0,265,265,265,265,265,0,0,0,0,0,265,265,265,265,265,265,265,265,265,0,0,0,0,0,0,0,0,0,0,0,0,0,0,0,0,0,0,0,0,0,0,265,265,0,0,0,0,0,0,0,0,0,0,0,0,0,0,0,0,0,0,0,0,0,0,0,0,0,0,0,0,0,0,0,0,0,0,0,0,0,0,265,265,265,265,265,265,0,0,0,0,0,0,0,0,0,0,0,0,0,265,265,0,0,0,0,0,0,0,0,0,0,0,0,0,0,0,0,0,0,0,0,265,265,0,0,0,0,0,0,265,265,0,265,265,0,0,0,0,0,0,0,0,265,265,265,265,0,0,0,0,0,0,0,0,0,0,0,0,265,265,0,0,0,0,0,0,0,265,265,0,0,0,0,0,0,0,0,0,0,0,0,0,0,0,0,0,0,0,0,0,0,265,265,0,0,0,0,0,0,0,0,0,0,0,0,0,0,0,265,265,265,265,265,0,0,0,0,0,0,0,0,0,0,0,0,265,265,0,0,0,0,0,0,0,0,0,0,0,0,0,0,0,0,0,0,0,265,265,0,265,0,0,0,0,0,0,0,0,0,0,0,265,265,0,0,0,0,265,265,265,265,265,265,265,0,0,0,0,0,265,265,265,265,265,265,265,265,0,0,0,0,0,0,0,0,0,0,0,0,0,0,0,0,0,0,0,0,0,265,265,0,0,0,0,0,0,0,0,0,0,265,265,0,0,0,0,0,265,265,0,0,0,0,0,0,0,265,265,265,265,0,0,265,265,265,265,265,265,265,265,265,265,0,0,0,0,0,0,0,0,0,0,0,0,0,0,0,0,265,265,0,0,0,0,0,0,0,0,0,0,0,0,0,0,0,0,0,0,0,0,0,0,0,0,0,0,265,265,265,265,265,265,0,0,0,0,265,265,265,265,265,265,265,265,265,265,0,0,0,0,0,0,0,0,0,0,0,0,0,0,0,0,0,0,0,0,0,0,0,0,0,0,0,0,0,0,0,265,265,265,265,265,265,265,265,265,265,0,0,0,0,0,0,0,265,265,265,265,265,0,265,265,265,265,265,265,265,265,265,265,0,0,0,0,0,0,0,0,0,0,0,0,0,0,0,0,0,0,0,265,265,265,265,0,0,0,0,0,0,0,0,0,0,0,0,0,0,0,0,0,0,0,0,265,265,265,265,265,265,265,0,0,0,0,265,265,265,265,265,265,265,265,265,265,0,0,0,0,0,0,0,0,0,0,0,0,0,0,0,0,0,265,265,0,0,0,0,0,0,0,0,0,0,0,0,0,0,0,0,0,0,0,265,0,0,0,0,0,0,0,0,0,265,265,265,265,0,0,265,265,265,265,265,265,265,265,265,265,0,0,0,0,0,0,0,0,0,0,0,0,0,0,0,0,0,0,0,0,0,265,265,0,0,0,0,0,265,265,0,0,0,0,0,0,0,0,0,0,265,265,265,265,0,0,265,265,265,265,0,0,0,0,265,265,265,265,265,265,265,265,265,265,0,0,0,0,0,0,0,0,0,0,265,265,0,265,265,265,0,0,0,0,0,0,0,0,0,0,0,0,0,0,0,0,0,0,0,265,265,265,265,0,0,0,0,0,0,0,0,0,265,265,265,265,265,0,265,265,265,265,265,265,265,265,265,0,0,0,0,265,265,0,0,265,265,0,0,0,0,0,0,0,0,0,265,265,0,0,265,265,0,0,0,0,0,0,0,0,0,0,0,0,0,0,0,0,265,0,265,265,265,265,265,265,265,265,0,0,0,0,0,0,0,0,0,0,0,0,0,0,0,0,0,0,0,0,0,0,0,0,0,0,0,0,0,0,0,0,0,0,0,0,0,0,0,0,0,0,0,0,0,0,0,0,265,0,0,0,0,0,0,0,0,0,0,0,0,0,265,265,265,265,0,0,0,0,0,0,0,0,0,0,0,0,0,0,265,265,265,265,265,265,265,265,265,265,265,265,265,265,265,265,0,265,265,265,265,265,265,265,0,0,0,0,0,0,265,265,0,265,265,265,265,265,265,265,0,0,265,265,265,265,265,265,0,0,0,0,0,0,0,0,0,0,0,0,0,0,0,0,0,0,0,0,0,0,0,0,0,0,0,0,0,0,0,0,0,0,0,0,0,0,0,0,0,0,0,0,0,0,0,0,0,0,0,0,0,0,0,0,0,0,0,0,0,0,265,265,265,265,265,265,265,265,265,265,265,265,265,265,265,265,265,265,265,265,265,265,265,265,265,265,265,265,265,265,265,265,265,265,265,265,265,265,265,265,265,265,265,265,265,265,265,265,265,265,265,265,265,265,265,265,265,265,265,265,265,265,265,265,265,265,0,0,0,0,0,0,0,0,0,0,0,0,0,0,0,0,0,0,0,0,0,0,0,0,0,0,0,0,0,0,0,0,0,0,0,0,0,0,0,0,0,0,0,0,0,0,0,0,0,0,0,0,0,0,0,0,0,0,0,0,0,0,265,265,265,265,265,265,265,265,265,265,265,265,265,265,265,265,265,265,265,265,265,265,265,265,265,265,265,265,265,265,265,265,265,265,265,265,265,265,265,265,265,265,265,265,265,265,265,265,265,265,265,265,265,265,265,265,265,265,265,265,265,265,265,265,265]},{"id":6,"name":"objects","type":"objectgroup","x":0,"y":0,"opacity":1,"visible":true,"draworder":"topdown","objects":[{"id":1,"name":"spawn","type":"","x":520,"y":376,"width":0,"height":0,"point":true,"rotation":0,"visible":true}]}],"tilesets":[{"firstgid":1,"name":"floor","image":"../tilesets/TilesetFloor.png","imagewidth":352,"imageheight":417,"tilewidth":16,"tileheight":16,"columns":22,"tilecount":572,"margin":0,"spacing":0},{"firstgid":573,"name":"water","image":"../tilesets/TilesetWater.png","imagewidth":448,"imageheight":272,"tilewidth":16,"tileheight":16,"columns":28,"tilecount":476,"margin":0,"spacing":0},{"firstgid":1049,"name":"nature","image":"../tilesets/TilesetNature.png","imagewidth":384,"imageheight":336,"tilewidth":16,"tileheight":16,"columns":24,"tilecount":504,"margin":0,"spacing":0},{"firstgid":1553,"name":"ruins","image":"../tilesets/TilesetVillageAbandoned.png","imagewidth":320,"imageheight":192,"tilewidth":16,"tileheight":16,"columns":20,"tilecount":240,"margin":0,"spacing":0}]}