{"type":"map","version":"1.10","tiledversion":"1.11.0","orientation":"orthogonal","renderorder":"right-down","width":40,"height":28,"tilewidth":64,"tileheight":64,"infinite":false,"nextlayerid":5,"nextobjectid":285,"layers":[{"id":1,"name":"sand","type":"tilelayer","x":0,"y":0,"width":40,"height":28,"opacity":1,"visible":true,"data":[0,0,0,0,0,0,0,0,0,0,0,0,0,0,0,0,0,0,0,0,0,0,0,0,0,0,0,0,0,0,0,0,0,0,0,0,0,0,0,0,0,0,0,0,0,0,0,0,0,0,0,0,0,0,0,0,0,0,0,0,0,0,0,0,0,0,0,0,0,0,0,0,0,0,0,0,0,0,0,0,0,0,0,0,0,0,0,0,0,0,0,0,0,0,0,0,6,7,7,7,8,0,0,0,0,0,6,7,7,8,0,0,0,0,0,0,0,0,0,0,0,0,0,0,0,0,0,0,0,0,0,0,0,0,6,7,17,17,17,17,17,7,7,7,7,7,17,17,17,17,7,8,0,0,0,0,0,0,0,0,0,0,0,0,0,0,6,7,7,7,7,7,7,7,17,17,17,17,17,17,17,17,17,17,17,17,17,17,17,17,17,17,8,0,0,0,0,0,0,0,0,0,0,0,0,6,17,17,17,17,17,17,17,17,17,17,17,17,17,17,17,17,17,17,17,17,17,17,17,17,17,17,17,8,0,0,0,0,0,0,0,0,0,0,6,17,17,17,17,17,17,17,17,17,17,17,17,17,17,17,17,17,17,17,17,17,17,17,17,17,17,17,17,17,8,0,0,0,0,0,0,0,0,6,17,17,17,17,17,17,17,17,17,17,17,17,17,17,17,17,17,17,17,17,17,17,17,17,17,17,17,17,17,17,17,7,8,0,0,0,0,0,0,16,17,17,17,17,17,17,17,17,17,17,17,17,17,17,17,17,17,17,17,17,17,17,17,17,17,17,17,17,17,17,17,17,17,8,0,0,0,0,0,16,17,17,17,17,17,17,17,17,17,17,17,17,17,17,17,17,17,17,17,17,17,17,17,17,17,17,17,17,17,17,17,17,17,18,0,0,0,0,0,26,17,17,17,17,17,17,17,17,17,17,17,17,17,17,17,17,17,17,17,17,17,17,17,17,17,17,17,17,17,17,17,17,17,18,0,0,0,0,0,0,16,17,17,17,17,17,17,17,17,17,17,17,17,17,17,17,17,17,17,17,17,17,17,17,17,17,17,17,17,17,17,17,17,18,0,0,0,0,0,0,16,17,17,17,17,17,17,17,17,17,17,17,17,17,17,17,17,17,17,17,17,17,17,17,17,17,17,17,17,17,17,17,17,18,0,0,0,0,0,6,17,17,17,17,17,17,17,17,17,17,17,17,17,17,17,17,17,17,17,17,17,17,17,17,17,17,17,17,17,17,17,17,17,28,0,0,0,0,0,16,17,17,17,17,17,17,17,17,17,17,17,17,17,17,17,17,17,17,17,17,17,17,17,17,17,17,17,17,17,17,17,17,18,0,0,0,0,0,0,16,17,17,17,17,17,17,17,17,17,17,17,17,17,17,17,17,17,17,17,17,17,17,17,17,17,17,17,17,17,17,17,17,18,0,0,0,0,0,6,17,17,17,17,17,17,27,27,27,27,27,17,17,17,17,17,17,17,17,17,17,17,17,17,17,17,17,17,17,17,17,17,17,18,0,0,0,0,0,26,17,17,17,17,17,18,0,0,0,0,0,16,17,17,17,17,17,17,17,17,17,17,17,17,17,17,17,17,17,17,17,17,17,18,0,0,0,0,0,0,16,17,17,17,17,18,0,0,0,0,0,16,17,17,17,17,17,17,17,17,17,17,17,17,17,17,17,17,17,17,17,17,17,18,0,0,0,0,0,0,16,17,17,17,17,18,0,0,0,0,0,16,17,17,17,17,17,17,17,17,17,17,17,17,17,17,17,17,17,17,17,17,17,28,0,0,0,0,0,0,26,17,17,17,17,17,7,7,7,7,7,17,17,17,17,17,17,17,17,17,17,17,17,17,17,17,17,17,17,17,17,17,28,0,0,0,0,0,0,0,0,26,17,17,17,17,17,17,17,17,17,17,17,17,17,17,17,17,17,17,17,17,17,17,17,17,17,17,17,27,27,28,0,0,0,0,0,0,0,0,0,0,26,17,17,17,17,17,17,17,17,17,17,17,17,17,17,17,17,17,17,17,17,17,17,17,17,17,28,0,0,0,0,0,0,0,0,0,0,0,0,0,0,26,27,17,17,17,17,17,27,17,17,17,17,17,17,17,17,17,17,17,17,17,17,17,17,28,0,0,0,0,0,0,0,0,0,0,0,0,0,0,0,0,0,26,27,27,27,28,0,26,27,27,17,17,17,17,17,17,17,17,27,27,27,27,28,0,0,0,0,0,0,0,0,0,0,0,0,0,0,0,0,0,0,0,0,0,0,0,0,0,0,0,26,27,27,27,27,27,27,28,0,0,0,0,0,0,0,0,0,0,0,0,0,0,0,0,0,0,0,0,0,0,0,0,0,0,0,0,0,0,0,0,0,0,0,0,0,0,0,0,0,0,0,0,0,0,0,0,0,0,0,0,0,0,0,0,0,0,0,0,0,0,0,0,0,0,0,0,0,0,0,0,0,0,0,0,0,0,0,0,0,0,0,0,0,0,0,0,0,0,0,0,0,0,0]},{"id":2,"name":"grass","type":"tilelayer","x":0,"y":0,"width":40,"height":28,"opacity":1,"visible":true,"data":[0,0,0,0,0,0,0,0,0,0,0,0,0,0,0,0,0,0,0,0,0,0,0,0,0,0,0,0,0,0,0,0,0,0,0,0,0,0,0,0,0,0,0,0,0,0,0,0,0,0,0,0,0,0,0,0,0,0,0,0,0,0,0,0,0,0,0,0,0,0,0,0,0,0,0,0,0,0,0,0,0,0,0,0,0,0,0,0,0,0,0,0,0,0,0,0,0,0,0,0,0,0,0,0,0,0,0,0,0,0,0,0,0,0,0,0,0,0,0,0,0,0,0,0,0,0,0,0,0,0,0,0,0,0,0,1,2,2,2,2,2,2,3,0,0,0,0,1,2,2,3,0,0,0,0,0,0,0,0,0,0,0,0,0,0,0,0,0,0,1,3,0,0,0,0,11,12,12,12,12,12,12,12,2,2,2,2,12,12,12,13,0,0,0,0,0,0,0,0,0,0,0,0,0,0,0,0,1,2,12,12,2,2,2,2,12,12,12,12,12,12,12,12,12,12,12,12,12,12,12,12,3,0,0,0,0,0,0,0,0,0,0,0,0,0,1,2,12,12,12,12,12,12,12,12,12,12,12,12,12,12,12,12,12,12,12,12,12,12,12,12,12,3,0,0,0,0,0,0,0,0,0,0,0,0,11,12,12,12,12,12,12,12,12,12,12,12,12,12,12,12,12,12,12,12,12,12,12,22,22,22,12,12,3,0,0,0,0,0,0,0,0,0,1,2,12,12,12,12,12,12,12,12,12,12,12,12,12,12,12,12,12,12,12,12,12,12,23,0,0,0,11,12,12,2,3,0,0,0,0,0,0,0,21,22,12,12,12,12,12,12,12,12,12,12,12,12,12,12,12,12,12,12,12,12,22,23,0,0,0,0,11,12,12,12,12,2,3,0,0,0,0,0,0,0,11,12,12,12,12,12,12,12,12,12,12,12,12,12,12,12,12,12,22,23,0,0,0,0,0,0,11,12,12,12,12,12,13,0,0,0,0,0,0,0,11,12,12,12,12,12,12,12,12,12,12,12,12,12,12,12,12,23,0,0,0,0,1,2,2,2,12,12,12,12,12,12,23,0,0,0,0,0,0,0,21,22,22,22,22,22,22,22,22,22,12,12,12,12,22,22,23,0,0,0,1,2,12,12,12,12,12,12,12,12,12,23,0,0,0,0,0,0,0,0,0,0,0,0,0,0,0,0,0,0,21,22,22,23,0,0,0,0,0,1,12,12,12,12,12,12,12,12,12,12,13,0,0,0,0,0,0,0,0,1,2,2,2,2,2,3,0,0,0,0,0,0,0,0,0,0,0,1,2,12,12,12,12,12,12,12,12,12,12,12,13,0,0,0,0,0,0,0,0,11,12,12,12,22,22,23,0,0,0,1,2,3,0,0,0,0,0,11,12,12,12,12,12,12,12,12,12,12,12,12,13,0,0,0,0,0,0,0,0,11,12,12,13,0,0,0,0,0,0,21,22,23,0,0,0,1,2,12,12,12,12,12,12,12,12,12,12,12,12,12,13,0,0,0,0,0,0,0,0,11,12,12,13,0,0,0,0,0,0,0,0,0,0,0,1,12,12,12,12,12,12,12,12,12,12,12,12,12,12,12,13,0,0,0,0,0,0,0,0,11,12,12,13,0,0,0,0,0,0,0,0,0,0,1,12,12,12,12,12,12,12,12,12,12,12,12,12,12,12,12,23,0,0,0,0,0,0,0,0,21,12,12,13,0,0,0,0,0,0,1,2,2,2,12,12,12,12,12,12,12,12,12,12,12,12,12,12,12,12,13,0,0,0,0,0,0,0,0,0,0,21,12,13,0,0,0,0,1,2,12,12,12,12,12,12,12,12,12,12,12,12,12,12,12,12,12,22,22,12,13,0,0,0,0,0,0,0,0,0,0,0,21,12,2,2,2,2,12,12,12,12,12,12,12,12,12,12,12,12,12,12,12,12,12,12,23,0,0,21,23,0,0,0,0,0,0,0,0,0,0,0,0,21,22,12,12,12,12,12,22,12,12,12,12,12,12,12,12,12,12,12,12,12,12,23,0,0,0,0,0,0,0,0,0,0,0,0,0,0,0,0,0,0,0,21,22,12,12,23,0,21,22,22,12,12,12,12,12,12,12,22,22,22,23,0,0,0,0,0,0,0,0,0,0,0,0,0,0,0,0,0,0,0,0,0,0,21,23,0,0,0,0,0,21,12,12,12,12,12,23,0,0,0,0,0,0,0,0,0,0,0,0,0,0,0,0,0,0,0,0,0,0,0,0,0,0,0,0,0,0,0,0,0,0,21,22,22,22,23,0,0,0,0,0,0,0,0,0,0,0,0,0,0,0,0,0,0,0,0,0,0,0,0,0,0,0,0,0,0,0,0,0,0,0,0,0,0,0,0,0,0,0,0,0,0,0,0,0,0,0,0,0,0,0,0,0,0,0,0,0,0,0,0,0,0,0,0,0,0,0,0,0,0,0,0,0,0,0,0,0,0,0,0,0,0,0,0,0,0,0,0,0,0,0,0]},{"id":3,"name":"collide","type":"tilelayer","x":0,"y":0,"width":40,"height":28,"opacity":1,"visible":false,"data":[17,17,17,17,17,17,17,17,17,17,17,17,17,17,17,17,17,17,17,17,17,17,17,17,17,17,17,17,17,17,17,17,17,17,17,17,17,17,17,17,17,17,17,17,17,17,17,17,17,17,17,17,17,17,17,17,17,17,17,17,17,17,17,17,17,17,17,17,17,17,17,17,17,17,17,17,17,17,17,17,17,17,17,17,17,17,17,17,17,17,17,17,17,17,17,17,0,0,0,0,0,17,17,17,17,17,0,0,0,0,17,17,17,17,17,17,17,17,17,17,17,17,17,17,17,17,17,17,17,17,17,17,17,17,0,0,0,0,0,0,0,0,0,0,0,0,0,0,0,0,0,0,17,17,17,17,17,17,17,17,17,17,17,17,17,17,0,0,0,0,0,0,0,0,0,0,0,0,0,0,0,0,0,0,0,0,0,0,0,0,0,0,0,17,17,17,17,17,17,17,17,17,17,17,17,0,0,0,0,0,0,0,0,0,0,0,0,0,0,0,0,0,0,0,0,0,0,0,0,0,0,0,0,0,17,17,17,17,17,17,17,17,17,17,0,0,0,0,0,0,0,0,0,0,0,0,0,0,0,0,0,0,0,0,0,0,0,0,0,0,0,0,0,0,0,17,17,17,17,17,17,17,17,0,0,0,0,0,0,0,0,0,0,0,0,0,0,0,0,0,0,0,0,0,0,0,0,0,0,0,0,0,0,0,0,0,0,17,17,17,17,17,17,0,0,0,0,0,0,0,0,0,0,0,0,0,0,0,0,0,0,0,0,0,0,0,0,0,0,0,0,0,0,0,0,0,0,0,17,17,17,17,17,0,0,0,0,0,0,0,0,0,0,0,0,0,0,0,0,0,0,0,0,0,0,0,0,0,0,0,0,0,0,0,0,0,0,0,17,17,17,17,17,0,0,0,0,0,0,0,0,0,0,0,0,0,0,0,0,0,0,0,0,0,0,0,0,0,0,0,0,0,0,0,0,0,0,0,17,17,17,17,17,17,0,0,0,0,0,0,0,0,0,0,0,0,0,0,0,0,0,0,0,0,0,0,0,0,0,0,0,0,0,0,0,0,0,0,17,17,17,17,17,17,0,0,0,0,0,0,0,0,0,0,0,0,0,0,0,0,0,0,0,0,0,0,0,0,0,0,0,0,0,0,0,0,0,0,17,17,17,17,17,0,0,0,0,0,0,0,0,0,0,0,0,0,0,0,0,0,0,0,0,0,0,0,0,0,0,0,0,0,0,0,0,0,0,0,17,17,17,17,17,0,0,0,0,0,0,0,0,0,0,0,0,0,0,0,0,0,0,0,0,0,0,0,0,0,0,0,0,0,0,0,0,0,0,17,17,17,17,17,17,0,0,0,0,0,0,0,0,0,0,0,0,0,0,0,0,0,0,0,0,0,0,0,0,0,0,0,0,0,0,0,0,0,0,17,17,17,17,17,0,0,0,0,0,0,0,0,0,0,0,0,0,0,0,0,0,0,0,0,0,0,0,0,0,0,0,0,0,0,0,0,0,0,0,17,17,17,17,17,0,0,0,0,0,0,0,17,17,17,17,17,0,0,0,0,0,0,0,0,0,0,0,0,0,0,0,0,0,0,0,0,0,0,0,17,17,17,17,17,17,0,0,0,0,0,0,17,17,17,17,17,0,0,0,0,0,0,0,0,0,0,0,0,0,0,0,0,0,0,0,0,0,0,0,17,17,17,17,17,17,0,0,0,0,0,0,17,17,17,17,17,0,0,0,0,0,0,0,0,0,0,0,0,0,0,0,0,0,0,0,0,0,0,0,17,17,17,17,17,17,0,0,0,0,0,0,0,0,0,0,0,0,0,0,0,0,0,0,0,0,0,0,0,0,0,0,0,0,0,0,0,0,0,17,17,17,17,17,17,17,17,0,0,0,0,0,0,0,0,0,0,0,0,0,0,0,0,0,0,0,0,0,0,0,0,0,0,0,0,0,0,0,17,17,17,17,17,17,17,17,17,17,0,0,0,0,0,0,0,0,0,0,0,0,0,0,0,0,0,0,0,0,0,0,0,0,0,0,0,17,17,17,17,17,17,17,17,17,17,17,17,17,17,0,0,0,0,0,0,0,0,0,0,0,0,0,0,0,0,0,0,0,0,0,0,0,0,0,17,17,17,17,17,17,17,17,17,17,17,17,17,17,17,17,17,0,0,0,0,0,17,0,0,0,0,0,0,0,0,0,0,0,0,0,0,0,0,17,17,17,17,17,17,17,17,17,17,17,17,17,17,17,17,17,17,17,17,17,17,17,17,17,17,17,0,0,0,0,0,0,0,0,17,17,17,17,17,17,17,17,17,17,17,17,17,17,17,17,17,17,17,17,17,17,17,17,17,17,17,17,17,17,17,17,17,17,17,17,17,17,17,17,17,17,17,17,17,17,17,17,17,17,17,17,17,17,17,17,17,17,17,17,17,17,17,17,17,17,17,17,17,17,17,17,17,17,17,17,17,17,17,17,17,17,17,17,17,17,17,17,17,17,17,17,17,17,17]},{"id":4,"name":"objects","type":"objectgroup","x":0,"y":0,"opacity":1,"visible":true,"draworder":"topdown","objects":[{"id":1,"name":"","type":"foam","x":1056,"y":160,"width":0,"height":0,"point":true,"rotation":0,"visible":true},{"id":2,"name":"","type":"foam","x":1120,"y":160,"width":0,"height":0,"point":true,"rotation":0,"visible":true},{"id":3,"name":"","type":"foam","x":1184,"y":160,"width":0,"height":0,"point":true,"rotation":0,"visible":true},{"id":4,"name":"","type":"foam","x":1248,"y":160,"width":0,"height":0,"point":true,"rotation":0,"visible":true},{"id":5,"name":"","type":"foam","x":1312,"y":160,"width":0,"height":0,"point":true,"rotation":0,"visible":true},{"id":6,"name":"","type":"foam","x":1696,"y":160,"width":0,"height":0,"point":true,"rotation":0,"visible":true},{"id":7,"name":"","type":"foam","x":1760,"y":160,"width":0,"height":0,"point":true,"rotation":0,"visible":true},{"id":8,"name":"","type":"foam","x":1824,"y":160,"width":0,"height":0,"point":true,"rotation":0,"visible":true},{"id":9,"name":"","type":"foam","x":1888,"y":160,"width":0,"height":0,"point":true,"rotation":0,"visible":true},{"id":10,"name":"","type":"foam","x":928,"y":224,"width":0,"height":0,"point":true,"rotation":0,"visible":true},{"id":11,"name":"","type":"foam","x":992,"y":224,"width":0,"height":0,"point":true,"rotation":0,"visible":true},{"id":12,"name":"","type":"foam","x":1376,"y":224,"width":0,"height":0,"point":true,"rotation":0,"visible":true},{"id":13,"name":"","type":"foam","x":1440,"y":224,"width":0,"height":0,"point":true,"rotation":0,"visible":true},{"id":14,"name":"","type":"foam","x":1504,"y":224,"width":0,"height":0,"point":true,"rotation":0,"visible":true},{"id":15,"name":"","type":"foam","x":1568,"y":224,"width":0,"height":0,"point":true,"rotation":0,"visible":true},{"id":16,"name":"","type":"foam","x":1632,"y":224,"width":0,"height":0,"point":true,"rotation":0,"visible":true},{"id":17,"name":"","type":"foam","x":1952,"y":224,"width":0,"height":0,"point":true,"rotation":0,"visible":true},{"id":18,"name":"","type":"foam","x":2016,"y":224,"width":0,"height":0,"point":true,"rotation":0,"visible":true},{"id":19,"name":"","type":"foam","x":416,"y":288,"width":0,"height":0,"point":true,"rotation":0,"visible":true},{"id":20,"name":"","type":"foam","x":480,"y":288,"width":0,"height":0,"point":true,"rotation":0,"visible":true},{"id":21,"name":"","type":"foam","x":544,"y":288,"width":0,"height":0,"point":true,"rotation":0,"visible":true},{"id":22,"name":"","type":"foam","x":608,"y":288,"width":0,"height":0,"point":true,"rotation":0,"visible":true},{"id":23,"name":"","type":"foam","x":672,"y":288,"width":0,"height":0,"point":true,"rotation":0,"visible":true},{"id":24,"name":"","type":"foam","x":736,"y":288,"width":0,"height":0,"point":true,"rotation":0,"visible":true},{"id":25,"name":"","type":"foam","x":800,"y":288,"width":0,"height":0,"point":true,"rotation":0,"visible":true},{"id":26,"name":"","type":"foam","x":864,"y":288,"width":0,"height":0,"point":true,"rotation":0,"visible":true},{"id":27,"name":"","type":"foam","x":2080,"y":288,"width":0,"height":0,"point":true,"rotation":0,"visible":true},{"id":28,"name":"","type":"foam","x":352,"y":352,"width":0,"height":0,"point":true,"rotation":0,"visible":true},{"id":29,"name":"","type":"foam","x":2144,"y":352,"width":0,"height":0,"point":true,"rotation":0,"visible":true},{"id":30,"name":"","type":"foam","x":288,"y":416,"width":0,"height":0,"point":true,"rotation":0,"visible":true},{"id":31,"name":"","type":"foam","x":2208,"y":416,"width":0,"height":0,"point":true,"rotation":0,"visible":true},{"id":32,"name":"","type":"foam","x":224,"y":480,"width":0,"height":0,"point":true,"rotation":0,"visible":true},{"id":33,"name":"","type":"foam","x":2272,"y":480,"width":0,"height":0,"point":true,"rotation":0,"visible":true},{"id":34,"name":"","type":"foam","x":2336,"y":480,"width":0,"height":0,"point":true,"rotation":0,"visible":true},{"id":35,"name":"","type":"foam","x":224,"y":544,"width":0,"height":0,"point":true,"rotation":0,"visible":true},{"id":36,"name":"","type":"foam","x":2400,"y":544,"width":0,"height":0,"point":true,"rotation":0,"visible":true},{"id":37,"name":"","type":"foam","x":224,"y":608,"width":0,"height":0,"point":true,"rotation":0,"visible":true},{"id":38,"name":"","type":"foam","x":2400,"y":608,"width":0,"height":0,"point":true,"rotation":0,"visible":true},{"id":39,"name":"","type":"foam","x":224,"y":672,"width":0,"height":0,"point":true,"rotation":0,"visible":true},{"id":40,"name":"","type":"foam","x":2400,"y":672,"width":0,"height":0,"point":true,"rotation":0,"visible":true},{"id":41,"name":"","type":"foam","x":288,"y":736,"width":0,"height":0,"point":true,"rotation":0,"visible":true},{"id":42,"name":"","type":"foam","x":2400,"y":736,"width":0,"height":0,"point":true,"rotation":0,"visible":true},{"id":43,"name":"","type":"foam","x":288,"y":800,"width":0,"height":0,"point":true,"rotation":0,"visible":true},{"id":44,"name":"","type":"foam","x":2400,"y":800,"width":0,"height":0,"point":true,"rotation":0,"visible":true},{"id":45,"name":"","type":"foam","x":224,"y":864,"width":0,"height":0,"point":true,"rotation":0,"visible":true},{"id":46,"name":"","type":"foam","x":2400,"y":864,"width":0,"height":0,"point":true,"rotation":0,"visible":true},{"id":47,"name":"","type":"foam","x":224,"y":928,"width":0,"height":0,"point":true,"rotation":0,"visible":true},{"id":48,"name":"","type":"foam","x":2336,"y":928,"width":0,"height":0,"point":true,"rotation":0,"visible":true},{"id":49,"name":"","type":"foam","x":224,"y":992,"width":0,"height":0,"point":true,"rotation":0,"visible":true},{"id":50,"name":"","type":"foam","x":2336,"y":992,"width":0,"height":0,"point":true,"rotation":0,"visible":true},{"id":51,"name":"","type":"foam","x":160,"y":1056,"width":0,"height":0,"point":true,"rotation":0,"visible":true},{"id":52,"name":"","type":"foam","x":608,"y":1056,"width":0,"height":0,"point":true,"rotation":0,"visible":true},{"id":53,"name":"","type":"foam","x":672,"y":1056,"width":0,"height":0,"point":true,"rotation":0,"visible":true},{"id":54,"name":"","type":"foam","x":736,"y":1056,"width":0,"height":0,"point":true,"rotation":0,"visible":true},{"id":55,"name":"","type":"foam","x":800,"y":1056,"width":0,"height":0,"point":true,"rotation":0,"visible":true},{"id":56,"name":"","type":"foam","x":864,"y":1056,"width":0,"height":0,"point":true,"rotation":0,"visible":true},{"id":57,"name":"","type":"foam","x":2336,"y":1056,"width":0,"height":0,"point":true,"rotation":0,"visible":true},{"id":58,"name":"","type":"foam","x":160,"y":1120,"width":0,"height":0,"point":true,"rotation":0,"visible":true},{"id":59,"name":"","type":"foam","x":544,"y":1120,"width":0,"height":0,"point":true,"rotation":0,"visible":true},{"id":60,"name":"","type":"foam","x":928,"y":1120,"width":0,"height":0,"point":true,"rotation":0,"visible":true},{"id":61,"name":"","type":"foam","x":2336,"y":1120,"width":0,"height":0,"point":true,"rotation":0,"visible":true},{"id":62,"name":"","type":"foam","x":224,"y":1184,"width":0,"height":0,"point":true,"rotation":0,"visible":true},{"id":63,"name":"","type":"foam","x":544,"y":1184,"width":0,"height":0,"point":true,"rotation":0,"visible":true},{"id":64,"name":"","type":"foam","x":928,"y":1184,"width":0,"height":0,"point":true,"rotation":0,"visible":true},{"id":65,"name":"","type":"foam","x":2336,"y":1184,"width":0,"height":0,"point":true,"rotation":0,"visible":true},{"id":66,"name":"","type":"foam","x":224,"y":1248,"width":0,"height":0,"point":true,"rotation":0,"visible":true},{"id":67,"name":"","type":"foam","x":544,"y":1248,"width":0,"height":0,"point":true,"rotation":0,"visible":true},{"id":68,"name":"","type":"foam","x":928,"y":1248,"width":0,"height":0,"point":true,"rotation":0,"visible":true},{"id":69,"name":"","type":"foam","x":2336,"y":1248,"width":0,"height":0,"point":true,"rotation":0,"visible":true},{"id":70,"name":"","type":"foam","x":224,"y":1312,"width":0,"height":0,"point":true,"rotation":0,"visible":true},{"id":71,"name":"","type":"foam","x":608,"y":1312,"width":0,"height":0,"point":true,"rotation":0,"visible":true},{"id":72,"name":"","type":"foam","x":672,"y":1312,"width":0,"height":0,"point":true,"rotation":0,"visible":true},{"id":73,"name":"","type":"foam","x":736,"y":1312,"width":0,"height":0,"point":true,"rotation":0,"visible":true},{"id":74,"name":"","type":"foam","x":800,"y":1312,"width":0,"height":0,"point":true,"rotation":0,"visible":true},{"id":75,"name":"","type":"foam","x":864,"y":1312,"width":0,"height":0,"point":true,"rotation":0,"visible":true},{"id":76,"name":"","type":"foam","x":2272,"y":1312,"width":0,"height":0,"point":true,"rotation":0,"visible":true},{"id":77,"name":"","type":"foam","x":288,"y":1376,"width":0,"height":0,"point":true,"rotation":0,"visible":true},{"id":78,"name":"","type":"foam","x":2080,"y":1376,"width":0,"height":0,"point":true,"rotation":0,"visible":true},{"id":79,"name":"","type":"foam","x":2144,"y":1376,"width":0,"height":0,"point":true,"rotation":0,"visible":true},{"id":80,"name":"","type":"foam","x":2208,"y":1376,"width":0,"height":0,"point":true,"rotation":0,"visible":true},{"id":81,"name":"","type":"foam","x":352,"y":1440,"width":0,"height":0,"point":true,"rotation":0,"visible":true},{"id":82,"name":"","type":"foam","x":2016,"y":1440,"width":0,"height":0,"point":true,"rotation":0,"visible":true},{"id":83,"name":"","type":"foam","x":416,"y":1504,"width":0,"height":0,"point":true,"rotation":0,"visible":true},{"id":84,"name":"","type":"foam","x":480,"y":1504,"width":0,"height":0,"point":true,"rotation":0,"visible":true},{"id":85,"name":"","type":"foam","x":864,"y":1504,"width":0,"height":0,"point":true,"rotation":0,"visible":true},{"id":86,"name":"","type":"foam","x":1952,"y":1504,"width":0,"height":0,"point":true,"rotation":0,"visible":true},{"id":87,"name":"","type":"foam","x":544,"y":1568,"width":0,"height":0,"point":true,"rotation":0,"visible":true},{"id":88,"name":"","type":"foam","x":608,"y":1568,"width":0,"height":0,"point":true,"rotation":0,"visible":true},{"id":89,"name":"","type":"foam","x":672,"y":1568,"width":0,"height":0,"point":true,"rotation":0,"visible":true},{"id":90,"name":"","type":"foam","x":736,"y":1568,"width":0,"height":0,"point":true,"rotation":0,"visible":true},{"id":91,"name":"","type":"foam","x":800,"y":1568,"width":0,"height":0,"point":true,"rotation":0,"visible":true},{"id":92,"name":"","type":"foam","x":928,"y":1568,"width":0,"height":0,"point":true,"rotation":0,"visible":true},{"id":93,"name":"","type":"foam","x":992,"y":1568,"width":0,"height":0,"point":true,"rotation":0,"visible":true},{"id":94,"name":"","type":"foam","x":1056,"y":1568,"width":0,"height":0,"point":true,"rotation":0,"visible":true},{"id":95,"name":"","type":"foam","x":1632,"y":1568,"width":0,"height":0,"point":true,"rotation":0,"visible":true},{"id":96,"name":"","type":"foam","x":1696,"y":1568,"width":0,"height":0,"point":true,"rotation":0,"visible":true},{"id":97,"name":"","type":"foam","x":1760,"y":1568,"width":0,"height":0,"point":true,"rotation":0,"visible":true},{"id":98,"name":"","type":"foam","x":1824,"y":1568,"width":0,"height":0,"point":true,"rotation":0,"visible":true},{"id":99,"name":"","type":"foam","x":1888,"y":1568,"width":0,"height":0,"point":true,"rotation":0,"visible":true},{"id":100,"name":"","type":"foam","x":1120,"y":1632,"width":0,"height":0,"point":true,"rotation":0,"visible":true},{"id":101,"name":"","type":"foam","x":1184,"y":1632,"width":0,"height":0,"point":true,"rotation":0,"visible":true},{"id":102,"name":"","type":"foam","x":1248,"y":1632,"width":0,"height":0,"point":true,"rotation":0,"visible":true},{"id":103,"name":"","type":"foam","x":1312,"y":1632,"width":0,"height":0,"point":true,"rotation":0,"visible":true},{"id":104,"name":"","type":"foam","x":1376,"y":1632,"width":0,"height":0,"point":true,"rotation":0,"visible":true},{"id":105,"name":"","type":"foam","x":1440,"y":1632,"width":0,"height":0,"point":true,"rotation":0,"visible":true},{"id":106,"name":"","type":"foam","x":1504,"y":1632,"width":0,"height":0,"point":true,"rotation":0,"visible":true},{"id":107,"name":"","type":"foam","x":1568,"y":1632,"width":0,"height":0,"point":true,"rotation":0,"visible":true},{"id":108,"name":"","type":"castle","x":1888,"y":440,"width":0,"height":0,"point":true,"rotation":0,"visible":true},{"id":109,"name":"","type":"tower","x":1632,"y":504,"width":0,"height":0,"point":true,"rotation":0,"visible":true},{"id":110,"name":"","type":"house","x":2144,"y":568,"width":0,"height":0,"point":true,"rotation":0,"visible":true},{"id":111,"name":"","type":"signSkull","x":1770,"y":696,"width":0,"height":0,"point":true,"rotation":0,"visible":true},{"id":112,"name":"","type":"signArrow","x":1440,"y":824,"width":0,"height":0,"point":true,"rotation":0,"visible":true},{"id":113,"name":"","type":"tree2","x":1054,"y":247,"width":0,"height":0,"point":true,"rotation":0,"visible":true},{"id":114,"name":"","type":"tree3","x":1245,"y":250,"width":0,"height":0,"point":true,"rotation":0,"visible":true},{"id":115,"name":"","type":"tree2","x":1369,"y":245,"width":0,"height":0,"point":true,"rotation":0,"visible":true},{"id":116,"name":"","type":"tree1","x":1434,"y":245,"width":0,"height":0,"point":true,"rotation":0,"visible":true},{"id":117,"name":"","type":"tree2","x":1761,"y":248,"width":0,"height":0,"point":true,"rotation":0,"visible":true},{"id":118,"name":"","type":"tree1","x":1894,"y":244,"width":0,"height":0,"point":true,"rotation":0,"visible":true},{"id":119,"name":"","type":"tree3","x":664,"y":316,"width":0,"height":0,"point":true,"rotation":0,"visible":true},{"id":120,"name":"","type":"tree3","x":870,"y":375,"width":0,"height":0,"point":true,"rotation":0,"visible":true},{"id":121,"name":"","type":"tree3","x":1064,"y":378,"width":0,"height":0,"point":true,"rotation":0,"visible":true},{"id":122,"name":"","type":"tree2","x":1189,"y":372,"width":0,"height":0,"point":true,"rotation":0,"visible":true},{"id":123,"name":"","type":"tree2","x":1379,"y":375,"width":0,"height":0,"point":true,"rotation":0,"visible":true},{"id":124,"name":"","type":"tree1","x":1506,"y":380,"width":0,"height":0,"point":true,"rotation":0,"visible":true},{"id":125,"name":"","type":"tree2","x":359,"y":441,"width":0,"height":0,"point":true,"rotation":0,"visible":true},{"id":126,"name":"","type":"tree2","x":472,"y":442,"width":0,"height":0,"point":true,"rotation":0,"visible":true},{"id":127,"name":"","type":"tree1","x":742,"y":439,"width":0,"height":0,"point":true,"rotation":0,"visible":true},{"id":128,"name":"","type":"tree2","x":1056,"y":443,"width":0,"height":0,"point":true,"rotation":0,"visible":true},{"id":129,"name":"","type":"tree1","x":423,"y":501,"width":0,"height":0,"point":true,"rotation":0,"visible":true},{"id":130,"name":"","type":"tree2","x":473,"y":500,"width":0,"height":0,"point":true,"rotation":0,"visible":true},{"id":131,"name":"","type":"tree3","x":606,"y":501,"width":0,"height":0,"point":true,"rotation":0,"visible":true},{"id":132,"name":"","type":"tree1","x":735,"y":505,"width":0,"height":0,"point":true,"rotation":0,"visible":true},{"id":133,"name":"","type":"tree1","x":805,"y":504,"width":0,"height":0,"point":true,"rotation":0,"visible":true},{"id":134,"name":"","type":"tree2","x":1176,"y":508,"width":0,"height":0,"point":true,"rotation":0,"visible":true},{"id":135,"name":"","type":"tree2","x":1315,"y":501,"width":0,"height":0,"point":true,"rotation":0,"visible":true},{"id":136,"name":"","type":"tree1","x":1441,"y":501,"width":0,"height":0,"point":true,"rotation":0,"visible":true},{"id":137,"name":"","type":"tree2","x":283,"y":564,"width":0,"height":0,"point":true,"rotation":0,"visible":true},{"id":138,"name":"","type":"tree2","x":550,"y":572,"width":0,"height":0,"point":true,"rotation":0,"visible":true},{"id":139,"name":"","type":"tree1","x":2273,"y":571,"width":0,"height":0,"point":true,"rotation":0,"visible":true},{"id":140,"name":"","type":"tree1","x":421,"y":634,"width":0,"height":0,"point":true,"rotation":0,"visible":true},{"id":141,"name":"","type":"tree2","x":606,"y":635,"width":0,"height":0,"point":true,"rotation":0,"visible":true},{"id":142,"name":"","type":"tree3","x":1183,"y":631,"width":0,"height":0,"point":true,"rotation":0,"visible":true},{"id":143,"name":"","type":"tree2","x":352,"y":699,"width":0,"height":0,"point":true,"rotation":0,"visible":true},{"id":144,"name":"","type":"tree2","x":2270,"y":700,"width":0,"height":0,"point":true,"rotation":0,"visible":true},{"id":145,"name":"","type":"tree2","x":2402,"y":696,"width":0,"height":0,"point":true,"rotation":0,"visible":true},{"id":146,"name":"","type":"tree2","x":481,"y":757,"width":0,"height":0,"point":true,"rotation":0,"visible":true},{"id":147,"name":"","type":"tree2","x":1115,"y":758,"width":0,"height":0,"point":true,"rotation":0,"visible":true},{"id":148,"name":"","type":"tree2","x":2211,"y":759,"width":0,"height":0,"point":true,"rotation":0,"visible":true},{"id":149,"name":"","type":"tree2","x":2392,"y":761,"width":0,"height":0,"point":true,"rotation":0,"visible":true},{"id":150,"name":"","type":"tree1","x":1123,"y":828,"width":0,"height":0,"point":true,"rotation":0,"visible":true},{"id":151,"name":"","type":"tree3","x":2083,"y":824,"width":0,"height":0,"point":true,"rotation":0,"visible":true},{"id":152,"name":"","type":"tree3","x":2200,"y":822,"width":0,"height":0,"point":true,"rotation":0,"visible":true},{"id":153,"name":"","type":"tree3","x":2143,"y":890,"width":0,"height":0,"point":true,"rotation":0,"visible":true},{"id":154,"name":"","type":"tree3","x":2270,"y":885,"width":0,"height":0,"point":true,"rotation":0,"visible":true},{"id":155,"name":"","type":"tree3","x":2273,"y":953,"width":0,"height":0,"point":true,"rotation":0,"visible":true},{"id":156,"name":"","type":"tree1","x":481,"y":1012,"width":0,"height":0,"point":true,"rotation":0,"visible":true},{"id":157,"name":"","type":"tree3","x":609,"y":1013,"width":0,"height":0,"point":true,"rotation":0,"visible":true},{"id":158,"name":"","type":"tree4","x":2008,"y":1020,"width":0,"height":0,"point":true,"rotation":0,"visible":true},{"id":159,"name":"","type":"tree4","x":2085,"y":1019,"width":0,"height":0,"point":true,"rotation":0,"visible":true},{"id":160,"name":"","type":"tree3","x":286,"y":1082,"width":0,"height":0,"point":true,"rotation":0,"visible":true},{"id":161,"name":"","type":"tree4","x":359,"y":1083,"width":0,"height":0,"point":true,"rotation":0,"visible":true},{"id":162,"name":"","type":"tree4","x":420,"y":1078,"width":0,"height":0,"point":true,"rotation":0,"visible":true},{"id":163,"name":"","type":"tree4","x":2209,"y":1083,"width":0,"height":0,"point":true,"rotation":0,"visible":true},{"id":164,"name":"","type":"tree4","x":2274,"y":1076,"width":0,"height":0,"point":true,"rotation":0,"visible":true},{"id":165,"name":"","type":"tree4","x":2019,"y":1144,"width":0,"height":0,"point":true,"rotation":0,"visible":true},{"id":166,"name":"","type":"tree4","x":348,"y":1210,"width":0,"height":0,"point":true,"rotation":0,"visible":true},{"id":167,"name":"","type":"tree4","x":477,"y":1207,"width":0,"height":0,"point":true,"rotation":0,"visible":true},{"id":168,"name":"","type":"tree1","x":1315,"y":1206,"width":0,"height":0,"point":true,"rotation":0,"visible":true},{"id":169,"name":"","type":"tree4","x":2073,"y":1206,"width":0,"height":0,"point":true,"rotation":0,"visible":true},{"id":170,"name":"","type":"tree4","x":2137,"y":1208,"width":0,"height":0,"point":true,"rotation":0,"visible":true},{"id":171,"name":"","type":"tree3","x":2278,"y":1204,"width":0,"height":0,"point":true,"rotation":0,"visible":true},{"id":172,"name":"","type":"tree4","x":424,"y":1275,"width":0,"height":0,"point":true,"rotation":0,"visible":true},{"id":173,"name":"","type":"tree3","x":1247,"y":1270,"width":0,"height":0,"point":true,"rotation":0,"visible":true},{"id":174,"name":"","type":"tree1","x":2013,"y":1271,"width":0,"height":0,"point":true,"rotation":0,"visible":true},{"id":175,"name":"","type":"tree4","x":409,"y":1336,"width":0,"height":0,"point":true,"rotation":0,"visible":true},{"id":176,"name":"","type":"tree3","x":483,"y":1332,"width":0,"height":0,"point":true,"rotation":0,"visible":true},{"id":177,"name":"","type":"tree4","x":807,"y":1334,"width":0,"height":0,"point":true,"rotation":0,"visible":true},{"id":178,"name":"","type":"tree3","x":934,"y":1336,"width":0,"height":0,"point":true,"rotation":0,"visible":true},{"id":179,"name":"","type":"tree4","x":1126,"y":1340,"width":0,"height":0,"point":true,"rotation":0,"visible":true},{"id":180,"name":"","type":"tree3","x":1376,"y":1338,"width":0,"height":0,"point":true,"rotation":0,"visible":true},{"id":181,"name":"","type":"tree3","x":2148,"y":1337,"width":0,"height":0,"point":true,"rotation":0,"visible":true},{"id":182,"name":"","type":"tree4","x":486,"y":1398,"width":0,"height":0,"point":true,"rotation":0,"visible":true},{"id":183,"name":"","type":"tree4","x":600,"y":1400,"width":0,"height":0,"point":true,"rotation":0,"visible":true},{"id":184,"name":"","type":"tree1","x":797,"y":1398,"width":0,"height":0,"point":true,"rotation":0,"visible":true},{"id":185,"name":"","type":"tree4","x":932,"y":1398,"width":0,"height":0,"point":true,"rotation":0,"visible":true},{"id":186,"name":"","type":"tree3","x":792,"y":1465,"width":0,"height":0,"point":true,"rotation":0,"visible":true},{"id":187,"name":"","type":"tree4","x":929,"y":1462,"width":0,"height":0,"point":true,"rotation":0,"visible":true},{"id":188,"name":"","type":"tree4","x":1063,"y":1466,"width":0,"height":0,"point":true,"rotation":0,"visible":true},{"id":189,"name":"","type":"tree4","x":1252,"y":1463,"width":0,"height":0,"point":true,"rotation":0,"visible":true},{"id":190,"name":"","type":"tree3","x":1639,"y":1461,"width":0,"height":0,"point":true,"rotation":0,"visible":true},{"id":191,"name":"","type":"tree1","x":1697,"y":1465,"width":0,"height":0,"point":true,"rotation":0,"visible":true},{"id":192,"name":"","type":"tree1","x":614,"y":1526,"width":0,"height":0,"point":true,"rotation":0,"visible":true},{"id":193,"name":"","type":"tree4","x":868,"y":1526,"width":0,"height":0,"point":true,"rotation":0,"visible":true},{"id":194,"name":"","type":"tree4","x":1182,"y":1524,"width":0,"height":0,"point":true,"rotation":0,"visible":true},{"id":195,"name":"","type":"tree3","x":1383,"y":1528,"width":0,"height":0,"point":true,"rotation":0,"visible":true},{"id":196,"name":"","type":"tree1","x":1437,"y":1525,"width":0,"height":0,"point":true,"rotation":0,"visible":true},{"id":197,"name":"","type":"tree3","x":739,"y":1591,"width":0,"height":0,"point":true,"rotation":0,"visible":true},{"id":198,"name":"","type":"tree3","x":1570,"y":1589,"width":0,"height":0,"point":true,"rotation":0,"visible":true},{"id":199,"name":"","type":"tree4","x":1247,"y":1656,"width":0,"height":0,"point":true,"rotation":0,"visible":true},{"id":200,"name":"","type":"tree4","x":1377,"y":1654,"width":0,"height":0,"point":true,"rotation":0,"visible":true},{"id":201,"name":"","type":"sheep","x":1885,"y":1399,"width":0,"height":0,"point":true,"rotation":0,"visible":true},{"id":202,"name":"","type":"sheep","x":1700,"y":1268,"width":0,"height":0,"point":true,"rotation":0,"visible":true},{"id":203,"name":"","type":"sheep","x":1953,"y":1275,"width":0,"height":0,"point":true,"rotation":0,"visible":true},{"id":204,"name":"","type":"bush1","x":1115,"y":312,"width":0,"height":0,"point":true,"rotation":0,"visible":true},{"id":205,"name":"","type":"bush2","x":2273,"y":761,"width":0,"height":0,"point":true,"rotation":0,"visible":true},{"id":206,"name":"","type":"bush3","x":2216,"y":1271,"width":0,"height":0,"point":true,"rotation":0,"visible":true},{"id":207,"name":"","type":"bush1","x":1184,"y":1465,"width":0,"height":0,"point":true,"rotation":0,"visible":true},{"id":208,"name":"","type":"bush4","x":988,"y":1528,"width":0,"height":0,"point":true,"rotation":0,"visible":true},{"id":209,"name":"","type":"bush3","x":1892,"y":1082,"width":0,"height":0,"point":true,"rotation":0,"visible":true},{"id":210,"name":"","type":"bush4","x":616,"y":564,"width":0,"height":0,"point":true,"rotation":0,"visible":true},{"id":211,"name":"","type":"bush2","x":1185,"y":248,"width":0,"height":0,"point":true,"rotation":0,"visible":true},{"id":212,"name":"","type":"bush2","x":1060,"y":824,"width":0,"height":0,"point":true,"rotation":0,"visible":true},{"id":213,"name":"","type":"bush3","x":1636,"y":1528,"width":0,"height":0,"point":true,"rotation":0,"visible":true},{"id":214,"name":"","type":"bush2","x":1251,"y":379,"width":0,"height":0,"point":true,"rotation":0,"visible":true},{"id":215,"name":"","type":"rock4","x":1433,"y":570,"width":0,"height":0,"point":true,"rotation":0,"visible":true},{"id":216,"name":"","type":"rock4","x":1312,"y":1340,"width":0,"height":0,"point":true,"rotation":0,"visible":true},{"id":217,"name":"","type":"rock4","x":796,"y":1080,"width":0,"height":0,"point":true,"rotation":0,"visible":true},{"id":218,"name":"","type":"rock3","x":1319,"y":1529,"width":0,"height":0,"point":true,"rotation":0,"visible":true},{"id":219,"name":"","type":"rock3","x":1436,"y":1146,"width":0,"height":0,"point":true,"rotation":0,"visible":true},{"id":220,"name":"","type":"rock1","x":538,"y":1340,"width":0,"height":0,"point":true,"rotation":0,"visible":true},{"id":221,"name":"","type":"rock4","x":2280,"y":828,"width":0,"height":0,"point":true,"rotation":0,"visible":true},{"id":222,"name":"","type":"rock4","x":1183,"y":1653,"width":0,"height":0,"point":true,"rotation":0,"visible":true},{"id":223,"name":"","type":"rock3","x":1886,"y":826,"width":0,"height":0,"point":true,"rotation":0,"visible":true},{"id":224,"name":"","type":"rock1","x":729,"y":698,"width":0,"height":0,"point":true,"rotation":0,"visible":true},{"id":225,"name":"","type":"rock2","x":926,"y":762,"width":0,"height":0,"point":true,"rotation":0,"visible":true},{"id":226,"name":"","type":"rock3","x":1563,"y":248,"width":0,"height":0,"point":true,"rotation":0,"visible":true},{"id":227,"name":"","type":"mushroom3","x":2212,"y":1149,"width":0,"height":0,"point":true,"rotation":0,"visible":true},{"id":228,"name":"","type":"shrub3","x":552,"y":1578,"width":0,"height":0,"point":true,"rotation":0,"visible":true},{"id":229,"name":"","type":"shrub3","x":688,"y":1086,"width":0,"height":0,"point":true,"rotation":0,"visible":true},{"id":230,"name":"","type":"pumpkin2","x":1429,"y":1327,"width":0,"height":0,"point":true,"rotation":0,"visible":true},{"id":231,"name":"","type":"shrub2","x":1375,"y":1457,"width":0,"height":0,"point":true,"rotation":0,"visible":true},{"id":232,"name":"","type":"pebble1","x":2206,"y":435,"width":0,"height":0,"point":true,"rotation":0,"visible":true},{"id":233,"name":"","type":"shrub3","x":2331,"y":954,"width":0,"height":0,"point":true,"rotation":0,"visible":true},{"id":234,"name":"","type":"pebble2","x":1558,"y":311,"width":0,"height":0,"point":true,"rotation":0,"visible":true},{"id":235,"name":"","type":"shrub2","x":1305,"y":247,"width":0,"height":0,"point":true,"rotation":0,"visible":true},{"id":236,"name":"","type":"pebble2","x":977,"y":318,"width":0,"height":0,"point":true,"rotation":0,"visible":true},{"id":237,"name":"","type":"sprout1","x":976,"y":256,"width":0,"height":0,"point":true,"rotation":0,"visible":true},{"id":238,"name":"","type":"sprout2","x":1512,"y":1263,"width":0,"height":0,"point":true,"rotation":0,"visible":true},{"id":239,"name":"","type":"sprout1","x":536,"y":1202,"width":0,"height":0,"point":true,"rotation":0,"visible":true},{"id":240,"name":"","type":"sprout1","x":279,"y":809,"width":0,"height":0,"point":true,"rotation":0,"visible":true},{"id":241,"name":"","type":"sprout1","x":1959,"y":1516,"width":0,"height":0,"point":true,"rotation":0,"visible":true},{"id":242,"name":"","type":"mushroom3","x":362,"y":1256,"width":0,"height":0,"point":true,"rotation":0,"visible":true},{"id":243,"name":"","type":"shrub2","x":937,"y":308,"width":0,"height":0,"point":true,"rotation":0,"visible":true},{"id":244,"name":"","type":"pumpkin2","x":929,"y":368,"width":0,"height":0,"point":true,"rotation":0,"visible":true},{"id":245,"name":"","type":"sprout1","x":416,"y":569,"width":0,"height":0,"point":true,"rotation":0,"visible":true},{"id":246,"name":"","type":"mushroom1","x":2337,"y":558,"width":0,"height":0,"point":true,"rotation":0,"visible":true},{"id":247,"name":"","type":"pebble1","x":1248,"y":1526,"width":0,"height":0,"point":true,"rotation":0,"visible":true},{"id":248,"name":"","type":"mushroom1","x":1938,"y":1020,"width":0,"height":0,"point":true,"rotation":0,"visible":true},{"id":249,"name":"","type":"mushroom1","x":2411,"y":573,"width":0,"height":0,"point":true,"rotation":0,"visible":true},{"id":250,"name":"","type":"pumpkin1","x":1813,"y":1083,"width":0,"height":0,"point":true,"rotation":0,"visible":true},{"id":251,"name":"","type":"shrub1","x":528,"y":749,"width":0,"height":0,"point":true,"rotation":0,"visible":true},{"id":252,"name":"","type":"mushroom3","x":916,"y":1584,"width":0,"height":0,"point":true,"rotation":0,"visible":true},{"id":253,"name":"","type":"shrub2","x":1063,"y":502,"width":0,"height":0,"point":true,"rotation":0,"visible":true},{"id":254,"name":"","type":"mushroom3","x":2014,"y":684,"width":0,"height":0,"point":true,"rotation":0,"visible":true},{"id":255,"name":"","type":"shrub2","x":1891,"y":189,"width":0,"height":0,"point":true,"rotation":0,"visible":true},{"id":256,"name":"","type":"mushroom2","x":1643,"y":1009,"width":0,"height":0,"point":true,"rotation":0,"visible":true},{"id":257,"name":"","type":"sprout2","x":209,"y":1260,"width":0,"height":0,"point":true,"rotation":0,"visible":true},{"id":258,"name":"","type":"sprout2","x":2335,"y":1204,"width":0,"height":0,"point":true,"rotation":0,"visible":true},{"id":259,"name":"","type":"sprout1","x":1447,"y":960,"width":0,"height":0,"point":true,"rotation":0,"visible":true},{"id":260,"name":"","type":"shrub3","x":752,"y":1456,"width":0,"height":0,"point":true,"rotation":0,"visible":true},{"id":261,"name":"","type":"mushroom3","x":979,"y":1007,"width":0,"height":0,"point":true,"rotation":0,"visible":true},{"id":262,"name":"","type":"pumpkin2","x":1579,"y":1073,"width":0,"height":0,"point":true,"rotation":0,"visible":true},{"id":263,"name":"","type":"pebble2","x":980,"y":1468,"width":0,"height":0,"point":true,"rotation":0,"visible":true},{"id":264,"name":"","type":"sprout2","x":1576,"y":1000,"width":0,"height":0,"point":true,"rotation":0,"visible":true},{"id":265,"name":"","type":"sprout2","x":1360,"y":1083,"width":0,"height":0,"point":true,"rotation":0,"visible":true},{"id":266,"name":"","type":"shrub1","x":732,"y":1405,"width":0,"height":0,"point":true,"rotation":0,"visible":true},{"id":267,"name":"","type":"mushroom1","x":1889,"y":1017,"width":0,"height":0,"point":true,"rotation":0,"visible":true},{"id":268,"name":"","type":"shrub2","x":867,"y":308,"width":0,"height":0,"point":true,"rotation":0,"visible":true},{"id":269,"name":"","type":"bone1","x":928,"y":1144,"width":0,"height":0,"point":true,"rotation":0,"visible":true},{"id":270,"name":"","type":"bone1","x":2016,"y":824,"width":0,"height":0,"point":true,"rotation":0,"visible":true},{"id":271,"name":"","type":"waterrock2","x":862,"y":183,"width":0,"height":0,"point":true,"rotation":0,"visible":true},{"id":272,"name":"","type":"waterrock2","x":2267,"y":309,"width":0,"height":0,"point":true,"rotation":0,"visible":true},{"id":273,"name":"","type":"waterrock2","x":488,"y":1653,"width":0,"height":0,"point":true,"rotation":0,"visible":true},{"id":274,"name":"","type":"hog","x":2080,"y":696,"width":0,"height":0,"point":true,"rotation":0,"visible":true},{"id":275,"name":"","type":"hog","x":1632,"y":632,"width":0,"height":0,"point":true,"rotation":0,"visible":true},{"id":276,"name":"","type":"hog","x":1824,"y":1272,"width":0,"height":0,"point":true,"rotation":0,"visible":true},{"id":277,"name":"","type":"snake","x":288,"y":1336,"width":0,"height":0,"point":true,"rotation":0,"visible":true},{"id":278,"name":"","type":"snake","x":1888,"y":1592,"width":0,"height":0,"point":true,"rotation":0,"visible":true},{"id":279,"name":"","type":"snake","x":2400,"y":888,"width":0,"height":0,"point":true,"rotation":0,"visible":true},{"id":280,"name":"","type":"goblin","x":672,"y":824,"width":0,"height":0,"point":true,"rotation":0,"visible":true},{"id":281,"name":"","type":"goblin","x":928,"y":504,"width":0,"height":0,"point":true,"rotation":0,"visible":true},{"id":282,"name":"","type":"goblin","x":1760,"y":1016,"width":0,"height":0,"point":true,"rotation":0,"visible":true},{"id":283,"name":"","type":"goblin","x":1568,"y":1336,"width":0,"height":0,"point":true,"rotation":0,"visible":true},{"id":284,"name":"spawn","type":"spawn","x":1312,"y":928,"width":0,"height":0,"point":true,"rotation":0,"visible":true}]}],"tilesets":[{"firstgid":1,"name":"flat","image":"../ts/ground/flat.png","imagewidth":640,"imageheight":256,"tilewidth":64,"tileheight":64,"columns":10,"tilecount":40,"margin":0,"spacing":0}]}